%
; 1001
; Machine
;   vendor: DIY
;   description: Plastic Monstrosity
; T1 D=6.35 CR=0 - ZMIN=10 - flat end mill
G90
G17
G21
G28 G91 Z0
G90

; 2D Pocket1
M0
T1
S5000 M3
G0 X72.483 Y-221.966 F100
G0 Z36
G1 Z26
G1 Z24.135 F1000
G1 X72.467 Y-221.991 Z23.943 F333.33
G1 X72.421 Y-222.064 Z23.769
G1 X72.354 Y-222.181 Z23.629
G1 X72.276 Y-222.333 Z23.536
G1 X72.2 Y-222.508 Z23.5
G3 X77.8 Y-224.75 Z23.169 I2.8 J-1.121
G3 X72.2 Y-222.508 Z22.838 I-2.8 J1.121
G3 X77.8 Y-224.75 Z22.507 I2.8 J-1.121
G3 X72.2 Y-222.508 Z22.176 I-2.8 J1.121
G3 X77.8 Y-224.75 Z21.845 I2.8 J-1.121
G3 X72.2 Y-222.508 Z21.515 I-2.8 J1.121
G3 X77.8 Y-224.75 Z21.184 I2.8 J-1.121
G3 X72.2 Y-222.508 Z20.853 I-2.8 J1.121
G3 X77.8 Y-224.75 Z20.522 I2.8 J-1.121
G3 X72.2 Y-222.508 Z20.191 I-2.8 J1.121
G3 X77.8 Y-224.75 Z19.86 I2.8 J-1.121
G3 X72.2 Y-222.508 Z19.529 I-2.8 J1.121
G3 X77.8 Y-224.75 Z19.198 I2.8 J-1.121
G3 X72.2 Y-222.508 Z18.867 I-2.8 J1.121
G3 X77.8 Y-224.75 Z18.536 I2.8 J-1.121
G3 X72.2 Y-222.508 Z18.206 I-2.8 J1.121
G3 X75 Y-226.645 Z18 I2.8 J-1.121
G1 X76.326 F600
G3 X76.645 Y-226.326 J0.319
G1 Y-73.674
G3 X76.326 Y-73.355 I-0.319
G1 X73.674
G3 X73.355 Y-73.674 J-0.319
G1 Y-226.326
G3 X73.674 Y-226.645 I0.319
G1 X75
G2 X78.103 Y-228.814 J-3.304
G3 X81.83 Y-228.153 I1.805 J0.66
G1 Y-68.49
G3 X81.51 Y-68.17 I-0.319
G1 X68.49
G3 X68.17 Y-68.49 J-0.319
G1 Y-231.51
G3 X68.49 Y-231.83 I0.319
G1 X81.51
G3 X81.83 Y-231.51 J0.319
G1 Y-228.153
G2 X84.422 Y-224.265 I4.212
G3 X87.014 Y-220.376 I-1.62 J3.888
G1 Y-63.305
G3 X86.695 Y-62.986 I-0.319
G1 X63.305
G3 X62.986 Y-63.305 J-0.319
G1 Y-236.695
G3 X63.305 Y-237.014 I0.319
G1 X86.695
G3 X87.014 Y-236.695 J0.319
G1 Y-220.376
G2 X89.607 Y-216.488 I4.212
G3 X92.199 Y-212.6 I-1.62 J3.888
G1 Y-58.12
G3 X91.88 Y-57.801 I-0.319
G1 X58.12
G3 X57.801 Y-58.12 J-0.319
G1 Y-241.88
G3 X58.12 Y-242.199 I0.319
G1 X91.88
G3 X92.199 Y-241.88 J0.319
G1 Y-212.6
G2 X94.791 Y-208.711 I4.212
G3 X97.383 Y-204.823 I-1.62 J3.888
G1 Y-52.936
G3 X97.064 Y-52.617 I-0.319
G1 X52.936
G3 X52.617 Y-52.936 J-0.319
G1 Y-247.064
G3 X52.936 Y-247.383 I0.319
G1 X97.064
G3 X97.383 Y-247.064 J0.319
G1 Y-204.823
G2 X99.976 Y-200.934 I4.212
G3 X102.568 Y-197.046 I-1.62 J3.888
G1 Y-47.751
G3 X102.249 Y-47.432 I-0.319
G1 X50.444
G3 X49.573 Y-47.791 J-1.237
G2 X47.794 Y-49.498 I-51.898 J52.309
G3 X47.432 Y-50.323 I0.761 J-0.826
G1 Y-249.677
G3 X47.794 Y-250.502 I1.123
G2 X49.573 Y-252.209 I-41.649 J-45.188
G3 X50.444 Y-252.568 I0.871 J0.878
G1 X102.249
G3 X102.568 Y-252.249 J0.319
G1 Y-197.046
G2 X105.16 Y-193.157 I4.212
G3 X107.753 Y-189.269 I-1.62 J3.888
G1 Y-44.303
G3 X107.393 Y-43.417 I-1.271
G2 X106.619 Y-42.606 I46.371 J45.069
G3 X105.788 Y-42.247 I-0.831 J-0.782
G1 X48.211
G3 X47.383 Y-42.604 J-1.139
G2 X42.607 Y-47.179 I-47.695 J45.021
G3 X42.247 Y-47.962 I0.673 J-0.783
G1 Y-252.038
G3 X42.607 Y-252.821 I1.033
G2 X47.383 Y-257.396 I-40.032 J-46.581
G3 X48.211 Y-257.753 I0.828 J0.782
G1 X105.789
G3 X106.619 Y-257.394 J1.141
G2 X107.393 Y-256.584 I56.87 J-53.549
G3 X107.753 Y-255.698 I-0.912 J0.886
G1 Y-189.269
G2 X110.652 Y-184.921 I4.711
G3 X113.551 Y-180.572 I-1.812 J4.348
G1 Y-41.829
G3 X113.19 Y-40.992 I-1.153
G2 X109.202 Y-36.809 I38.577 J40.77
G3 X108.42 Y-36.449 I-0.782 J-0.671
G1 X45.58
G3 X44.799 Y-36.808 J-1.03
G2 X36.807 Y-44.441 I-42.826 J36.836
G3 X36.449 Y-45.175 I0.574 J-0.733
G1 Y-254.825
G3 X36.807 Y-255.559 I0.931
G2 X44.799 Y-263.192 I-34.486 J-44.104
G3 X45.58 Y-263.551 I0.781 J0.672
G1 X108.42
G3 X109.203 Y-263.191 J1.031
G2 X113.19 Y-259.009 I41.893 J-35.948
G3 X113.551 Y-258.171 I-0.792 J0.837
G1 Y-180.572
G2 X116.433 Y-176.248 I4.684
G3 X119.316 Y-171.924 I-1.802 J4.324
G1 Y-39.212
G3 X118.959 Y-38.435 I-1.027
G2 X111.93 Y-31.037 I33.616 J38.983
G3 X111.208 Y-30.684 I-0.722 J-0.563
G1 X42.793
G3 X42.07 Y-31.038 J-0.915
G2 X31.039 Y-41.541 I-40.346 J31.328
G3 X30.684 Y-42.22 I0.473 J-0.679
G1 Y-257.779
G3 X31.039 Y-258.458 I0.827
G2 X42.07 Y-268.962 I-28.565 J-41.043
G3 X42.793 Y-269.316 I0.723 J0.561
G1 X111.208
G3 X111.93 Y-268.963 J0.916
G2 X115.258 Y-265.087 I42.166 J-32.84
G2 X118.959 Y-261.566 I36.72 J-34.893
G3 X119.316 Y-260.788 I-0.671 J0.778
G1 Y-171.924
G2 X122.178 Y-167.631 I4.651
G3 X125.041 Y-163.337 I-1.789 J4.294
G1 Y-36.429
G3 X124.686 Y-35.711 I-0.905
G2 X114.844 Y-25.314 I27.515 J35.903
G3 X114.176 Y-24.959 I-0.668 J-0.453
G1 X39.825
G3 X39.156 Y-25.315 J-0.808
G2 X32.936 Y-32.624 I-36.062 J24.385
G2 X25.308 Y-38.446 I-30.941 J32.63
G3 X24.959 Y-39.067 I0.379 J-0.621
G1 Y-260.933
G3 X25.308 Y-261.554 I0.727
G2 X29.234 Y-264.227 I-24.739 J-40.548
G2 X39.156 Y-274.685 I-27.23 J-35.769
G3 X39.825 Y-275.041 I0.669 J0.453
G1 X114.176
G3 X114.844 Y-274.686 J0.807
G2 X124.686 Y-264.289 I36.56 J-24.752
G3 X125.041 Y-263.571 I-0.55 J0.718
G1 Y-163.337
G2 X127.877 Y-159.082 I4.61
G3 X130.714 Y-154.827 I-1.773 J4.255
G1 Y-33.444
G3 X130.363 Y-32.791 I-0.783
G2 X123.401 Y-26.935 I21.941 J33.152
G2 X117.973 Y-19.634 I28.599 J26.934
G3 X117.368 Y-19.286 I-0.604 J-0.35
G1 X36.632
G3 X36.028 Y-19.634 J-0.698
G2 X28.964 Y-28.572 I-34.407 J19.934
G2 X19.632 Y-35.107 I-26.963 J28.572
G3 X19.286 Y-35.669 I0.283 J-0.561
G1 Y-264.331
G3 X19.632 Y-264.893 I0.629
G2 X28.964 Y-271.428 I-17.843 J-35.409
G2 X36.028 Y-280.366 I-26.964 J-28.572
G3 X36.632 Y-280.714 I0.604 J0.35
G1 X117.369
G3 X117.973 Y-280.366 J0.698
G2 X123.401 Y-273.065 I34.344 J-19.87
G2 X130.363 Y-267.21 I28.599 J-26.935
G3 X130.714 Y-266.557 I-0.432 J0.653
G1 Y-154.827
G2 X133.52 Y-150.619 I4.559
G3 X136.325 Y-146.41 I-1.753 J4.208
G1 Y-29.805
G2 X121.227 Y-13.675 I15.675 J29.804
G1 X32.774
G2 X13.675 Y-31.587 I-30.774 J13.675
G1 Y-268.413
G2 X32.774 Y-286.325 I-11.675 J-31.587
G1 X121.227
G2 X136.325 Y-270.196 I30.773 J-13.675
G1 Y-146.41
G1 X136.317 Y-146.313 Z18.016 F1000
G1 X136.295 Y-146.217 Z18.031
G1 X136.262 Y-146.135 Z18.076
G1 X136.218 Y-146.058 Z18.121
G1 X136.176 Y-146.002 Z18.192
G1 X136.128 Y-145.951 Z18.262
G1 X136.059 Y-145.894 Z18.439
G1 X136.033 Y-145.876 Z18.635
G1 Z26 F100
G1 X76.575 Y-221.056
G1 Z21.135 F1000
G1 X76.549 Y-221.041 Z20.943 F333.33
G1 X76.474 Y-220.998 Z20.769
G1 X76.355 Y-220.934 Z20.629
G1 X76.2 Y-220.862 Z20.536
G1 X76.023 Y-220.792 Z20.5
G3 X73.977 Y-226.466 Z20.169 I-1.023 J-2.837
G3 X76.023 Y-220.792 Z19.838 I1.023 J2.837
G3 X73.977 Y-226.466 Z19.507 I-1.023 J-2.837
G3 X76.023 Y-220.792 Z19.176 I1.023 J2.837
G3 X73.977 Y-226.466 Z18.845 I-1.023 J-2.837
G3 X76.023 Y-220.792 Z18.515 I1.023 J2.837
G3 X73.977 Y-226.466 Z18.184 I-1.023 J-2.837
G3 X76.023 Y-220.792 Z17.853 I1.023 J2.837
G3 X73.977 Y-226.466 Z17.522 I-1.023 J-2.837
G3 X76.023 Y-220.792 Z17.191 I1.023 J2.837
G3 X73.977 Y-226.466 Z16.86 I-1.023 J-2.837
G3 X76.023 Y-220.792 Z16.529 I1.023 J2.837
G3 X73.977 Y-226.466 Z16.198 I-1.023 J-2.837
G3 X76.023 Y-220.792 Z15.867 I1.023 J2.837
G3 X73.977 Y-226.466 Z15.536 I-1.023 J-2.837
G3 X75 Y-226.645 Z15.5 I1.023 J2.837
G1 X76.326 F600
G3 X76.645 Y-226.326 J0.319
G1 Y-73.674
G3 X76.326 Y-73.355 I-0.319
G1 X73.674
G3 X73.355 Y-73.674 J-0.319
G1 Y-226.326
G3 X73.674 Y-226.645 I0.319
G1 X75
G2 X78.103 Y-228.814 J-3.304
G3 X81.83 Y-228.153 I1.805 J0.66
G1 Y-68.49
G3 X81.51 Y-68.17 I-0.319
G1 X68.49
G3 X68.17 Y-68.49 J-0.319
G1 Y-231.51
G3 X68.49 Y-231.83 I0.319
G1 X81.51
G3 X81.83 Y-231.51 J0.319
G1 Y-228.153
G2 X84.422 Y-224.265 I4.212
G3 X87.014 Y-220.376 I-1.62 J3.888
G1 Y-63.305
G3 X86.695 Y-62.986 I-0.319
G1 X63.305
G3 X62.986 Y-63.305 J-0.319
G1 Y-236.695
G3 X63.305 Y-237.014 I0.319
G1 X86.695
G3 X87.014 Y-236.695 J0.319
G1 Y-220.376
G2 X89.607 Y-216.488 I4.212
G3 X92.199 Y-212.6 I-1.62 J3.888
G1 Y-58.12
G3 X91.88 Y-57.801 I-0.319
G1 X58.12
G3 X57.801 Y-58.12 J-0.319
G1 Y-241.88
G3 X58.12 Y-242.199 I0.319
G1 X91.88
G3 X92.199 Y-241.88 J0.319
G1 Y-212.6
G2 X94.791 Y-208.711 I4.212
G3 X97.383 Y-204.823 I-1.62 J3.888
G1 Y-52.936
G3 X97.064 Y-52.617 I-0.319
G1 X52.936
G3 X52.617 Y-52.936 J-0.319
G1 Y-247.064
G3 X52.936 Y-247.383 I0.319
G1 X97.064
G3 X97.383 Y-247.064 J0.319
G1 Y-204.823
G2 X99.976 Y-200.934 I4.212
G3 X102.568 Y-197.046 I-1.62 J3.888
G1 Y-47.751
G3 X102.249 Y-47.432 I-0.319
G1 X50.444
G3 X49.573 Y-47.791 J-1.237
G2 X47.794 Y-49.498 I-51.898 J52.309
G3 X47.432 Y-50.323 I0.761 J-0.826
G1 Y-249.677
G3 X47.794 Y-250.502 I1.123
G2 X49.573 Y-252.209 I-41.649 J-45.188
G3 X50.444 Y-252.568 I0.871 J0.878
G1 X102.249
G3 X102.568 Y-252.249 J0.319
G1 Y-197.046
G2 X105.16 Y-193.157 I4.212
G3 X107.753 Y-189.269 I-1.62 J3.888
G1 Y-44.303
G3 X107.393 Y-43.417 I-1.271
G2 X106.619 Y-42.606 I46.371 J45.069
G3 X105.788 Y-42.247 I-0.831 J-0.782
G1 X48.211
G3 X47.383 Y-42.604 J-1.139
G2 X42.607 Y-47.179 I-47.695 J45.021
G3 X42.247 Y-47.962 I0.673 J-0.783
G1 Y-252.038
G3 X42.607 Y-252.821 I1.033
G2 X47.383 Y-257.396 I-40.032 J-46.581
G3 X48.211 Y-257.753 I0.828 J0.782
G1 X105.789
G3 X106.619 Y-257.394 J1.141
G2 X107.393 Y-256.584 I56.87 J-53.549
G3 X107.753 Y-255.698 I-0.912 J0.886
G1 Y-189.269
G2 X110.652 Y-184.921 I4.711
G3 X113.551 Y-180.572 I-1.812 J4.348
G1 Y-41.829
G3 X113.19 Y-40.992 I-1.153
G2 X109.202 Y-36.809 I38.577 J40.77
G3 X108.42 Y-36.449 I-0.782 J-0.671
G1 X45.58
G3 X44.799 Y-36.808 J-1.03
G2 X36.807 Y-44.441 I-42.826 J36.836
G3 X36.449 Y-45.175 I0.574 J-0.733
G1 Y-254.825
G3 X36.807 Y-255.559 I0.931
G2 X44.799 Y-263.192 I-34.486 J-44.104
G3 X45.58 Y-263.551 I0.781 J0.672
G1 X108.42
G3 X109.203 Y-263.191 J1.031
G2 X113.19 Y-259.009 I41.893 J-35.948
G3 X113.551 Y-258.171 I-0.792 J0.837
G1 Y-180.572
G2 X116.433 Y-176.248 I4.684
G3 X119.316 Y-171.924 I-1.802 J4.324
G1 Y-39.212
G3 X118.959 Y-38.435 I-1.027
G2 X111.93 Y-31.037 I33.616 J38.983
G3 X111.208 Y-30.684 I-0.722 J-0.563
G1 X42.793
G3 X42.07 Y-31.038 J-0.915
G2 X31.039 Y-41.541 I-40.346 J31.328
G3 X30.684 Y-42.22 I0.473 J-0.679
G1 Y-257.779
G3 X31.039 Y-258.458 I0.827
G2 X42.07 Y-268.962 I-28.565 J-41.043
G3 X42.793 Y-269.316 I0.723 J0.561
G1 X111.208
G3 X111.93 Y-268.963 J0.916
G2 X115.258 Y-265.087 I42.166 J-32.84
G2 X118.959 Y-261.566 I36.72 J-34.893
G3 X119.316 Y-260.788 I-0.671 J0.778
G1 Y-171.924
G2 X122.178 Y-167.631 I4.651
G3 X125.041 Y-163.337 I-1.789 J4.294
G1 Y-36.429
G3 X124.686 Y-35.711 I-0.905
G2 X114.844 Y-25.314 I27.515 J35.903
G3 X114.176 Y-24.959 I-0.668 J-0.453
G1 X39.825
G3 X39.156 Y-25.315 J-0.808
G2 X32.936 Y-32.624 I-36.062 J24.385
G2 X25.308 Y-38.446 I-30.941 J32.63
G3 X24.959 Y-39.067 I0.379 J-0.621
G1 Y-260.933
G3 X25.308 Y-261.554 I0.727
G2 X29.234 Y-264.227 I-24.739 J-40.548
G2 X39.156 Y-274.685 I-27.23 J-35.769
G3 X39.825 Y-275.041 I0.669 J0.453
G1 X114.176
G3 X114.844 Y-274.686 J0.807
G2 X124.686 Y-264.289 I36.56 J-24.752
G3 X125.041 Y-263.571 I-0.55 J0.718
G1 Y-163.337
G2 X127.877 Y-159.082 I4.61
G3 X130.714 Y-154.827 I-1.773 J4.255
G1 Y-33.444
G3 X130.363 Y-32.791 I-0.783
G2 X123.401 Y-26.935 I21.941 J33.152
G2 X117.973 Y-19.634 I28.599 J26.934
G3 X117.368 Y-19.286 I-0.604 J-0.35
G1 X36.632
G3 X36.028 Y-19.634 J-0.698
G2 X28.964 Y-28.572 I-34.407 J19.934
G2 X19.632 Y-35.107 I-26.963 J28.572
G3 X19.286 Y-35.669 I0.283 J-0.561
G1 Y-264.331
G3 X19.632 Y-264.893 I0.629
G2 X28.964 Y-271.428 I-17.843 J-35.409
G2 X36.028 Y-280.366 I-26.964 J-28.572
G3 X36.632 Y-280.714 I0.604 J0.35
G1 X117.369
G3 X117.973 Y-280.366 J0.698
G2 X123.401 Y-273.065 I34.344 J-19.87
G2 X130.363 Y-267.21 I28.599 J-26.935
G3 X130.714 Y-266.557 I-0.432 J0.653
G1 Y-154.827
G2 X133.52 Y-150.619 I4.559
G3 X136.325 Y-146.41 I-1.753 J4.208
G1 Y-29.805
G2 X121.227 Y-13.675 I15.675 J29.804
G1 X32.774
G2 X13.675 Y-31.587 I-30.774 J13.675
G1 Y-268.413
G2 X32.774 Y-286.325 I-11.675 J-31.587
G1 X121.227
G2 X136.325 Y-270.196 I30.773 J-13.675
G1 Y-146.41
G1 X136.317 Y-146.313 Z15.516 F1000
G1 X136.295 Y-146.217 Z15.531
G1 X136.262 Y-146.135 Z15.576
G1 X136.218 Y-146.058 Z15.621
G1 X136.176 Y-146.002 Z15.692
G1 X136.128 Y-145.951 Z15.762
G1 X136.059 Y-145.894 Z15.939
G1 X136.033 Y-145.876 Z16.135
G1 Z36 F100

; 2D Adaptive3
G0 X55.66 Y-278.149 F100
G1 Z36
G1 Z26
G1 Z23.5
G3 X58.652 Y-272.911 Z23.169 I1.496 J2.619 F333.33
G3 X55.66 Y-278.149 Z22.838 I-1.496 J-2.619
G3 X58.652 Y-272.911 Z22.507 I1.496 J2.619
G3 X55.66 Y-278.149 Z22.176 I-1.496 J-2.619
G3 X58.652 Y-272.911 Z21.845 I1.496 J2.619
G3 X55.66 Y-278.149 Z21.515 I-1.496 J-2.619
G3 X58.652 Y-272.911 Z21.184 I1.496 J2.619
G3 X55.66 Y-278.149 Z20.853 I-1.496 J-2.619
G3 X58.652 Y-272.911 Z20.522 I1.496 J2.619
G3 X55.66 Y-278.149 Z20.191 I-1.496 J-2.619
G3 X58.652 Y-272.911 Z19.86 I1.496 J2.619
G3 X55.66 Y-278.149 Z19.529 I-1.496 J-2.619
G3 X58.652 Y-272.911 Z19.198 I1.496 J2.619
G3 X55.66 Y-278.149 Z18.867 I-1.496 J-2.619
G3 X58.652 Y-272.911 Z18.536 I1.496 J2.619
G3 X55.66 Y-278.149 Z18.206 I-1.496 J-2.619
G3 X58.652 Y-272.911 Z17.875 I1.496 J2.619
G3 X55.66 Y-278.149 Z17.544 I-1.496 J-2.619
G3 X58.652 Y-272.911 Z17.213 I1.496 J2.619
G3 X55.66 Y-278.149 Z16.882 I-1.496 J-2.619
G3 X58.652 Y-272.911 Z16.551 I1.496 J2.619
G3 X55.66 Y-278.149 Z16.22 I-1.496 J-2.619
G3 X60.172 Y-275.53 Z16 I1.496 J2.619
G3 X54.14 I-3.016
G3 X60.172 I3.016
G1 X60.176 Y-275.302 F600
G1 X60.331 Y-274.403
G1 X60.385 Y-274.263
G1 X60.422 Y-274.118
G1 X60.445 Y-273.97
G1 X60.454 Y-273.82
G1 X60.451 Y-273.662
G1 X60.434 Y-273.493
G1 X60.401 Y-273.314
G1 X60.351 Y-273.127
G1 X60.283 Y-272.934
G1 X60.247 Y-272.855
G1 X60.106 Y-272.607
G1 X59.919 Y-272.391
G1 X59.694 Y-272.214
G1 X59.44 Y-272.084
G1 X59.165 Y-272.005
G1 X58.881 Y-271.981
G1 X58.813
G1 X58.398 Y-271.979
G1 X57.984 Y-271.975
G1 X57.57 Y-271.966
G1 X57.156 Y-271.952
G1 X55.788 Y-271.895
G1 X55.582 Y-271.896
G1 X55.385 Y-271.913
G1 X55.178 Y-271.948
G1 X54.963 Y-272.002
G1 X54.743 Y-272.077
G1 X54.519 Y-272.174
G1 X54.294 Y-272.293
G1 X54.071 Y-272.436
G1 X53.852 Y-272.602
G1 X53.64 Y-272.791
G1 X53.437 Y-273.004
G1 X53.247 Y-273.238
G1 X53.072 Y-273.494
G1 X52.914 Y-273.77
G1 X52.776 Y-274.064
G1 X52.659 Y-274.374
G1 X52.566 Y-274.698
G1 X52.498 Y-275.034
G1 X52.457 Y-275.379
G1 X52.444 Y-275.731
G1 X52.459 Y-276.087
G1 X52.503 Y-276.444
G1 X52.576 Y-276.8
G1 X52.678 Y-277.151
G1 X52.809 Y-277.496
G1 X52.969 Y-277.831
G1 X53.155 Y-278.154
G1 X53.368 Y-278.462
G1 X53.607 Y-278.754
G1 X53.868 Y-279.027
G1 X54.152 Y-279.278
G1 X54.456 Y-279.507
G1 X54.589 Y-279.591
G1 X54.817 Y-279.709
G1 X55.062 Y-279.786
G1 X55.316 Y-279.819
G1 X56.328 Y-279.862
G1 X56.742 Y-279.88
G1 X57.156 Y-279.895
G1 X57.57 Y-279.906
G1 X57.798 Y-279.91
G1 X58.082 Y-279.901
G1 X58.376 Y-279.867
G1 X58.675 Y-279.808
G1 X58.976 Y-279.724
G1 X59.276 Y-279.613
G1 X59.572 Y-279.475
G1 X59.861 Y-279.311
G1 X60.142 Y-279.121
G1 X60.41 Y-278.905
G1 X60.664 Y-278.666
G1 X60.901 Y-278.404
G1 X61.118 Y-278.12
G1 X61.368 Y-277.733
G1 X61.761 Y-277.001
G1 X62.012 Y-276.427
G1 X62.189 Y-275.915
G1 X62.31 Y-275.444
G1 X62.388 Y-274.994
G1 X62.428 Y-274.559
G1 X62.432 Y-274.158
G1 X62.406 Y-273.775
G1 X62.352 Y-273.421
G1 X62.275 Y-273.089
G1 X62.235 Y-272.966
G1 X62.106 Y-272.676
G1 X61.919 Y-272.42
G1 X61.681 Y-272.21
G1 X61.404 Y-272.055
G1 X61.1 Y-271.963
G1 X60.784 Y-271.938
G1 X60.055 Y-271.957
G1 X59.227 Y-271.977
G1 X58.881 Y-271.981
G3 X58.282 Y-272.513 I0.029 J-0.634 F1000
G1 X57.204 Y-279.174
G3 X57.798 Y-279.91 I0.627 J-0.102
G1 X57.984 Y-279.913 F600
G1 X58.398 Y-279.917
G1 X58.813 Y-279.919
G1 X59.227 Y-279.915
G1 X59.641 Y-279.907
G1 X60.283 Y-279.891
G1 X60.488 Y-279.876
G1 X60.679 Y-279.846
G1 X60.896 Y-279.794
G1 X61.118 Y-279.721
G1 X61.367 Y-279.617
G1 X61.65 Y-279.471
G1 X61.93 Y-279.298
G1 X62.238 Y-279.07
G1 X62.538 Y-278.808
G1 X62.838 Y-278.5
G1 X63.135 Y-278.143
G1 X63.413 Y-277.746
G1 X63.665 Y-277.319
G1 X63.886 Y-276.862
G1 X64.074 Y-276.381
G1 X64.224 Y-275.881
G1 X64.333 Y-275.371
G1 X64.398 Y-274.874
G1 X64.421 Y-274.416
G1 X64.408 Y-274.001
G1 X64.365 Y-273.612
G1 X64.296 Y-273.256
G1 X64.203 Y-272.922
G1 X64.175 Y-272.844
G1 X64.038 Y-272.566
G1 X63.846 Y-272.322
G1 X63.608 Y-272.123
G1 X63.333 Y-271.979
G1 X63.035 Y-271.894
G1 X62.725 Y-271.874
G1 X62.126 Y-271.896
G1 X61.712 Y-271.91
G1 X60.829 Y-271.937
G1 X60.784 Y-271.938
G3 X60.19 Y-272.521 I0.039 J-0.634 F1000
G1 X59.656 Y-279.206
G3 X60.283 Y-279.891 I0.633 J-0.051
G1 X60.883 Y-279.876 F600
G1 X61.712 Y-279.852
G1 X62.354 Y-279.831
G1 X62.589 Y-279.811
G1 X62.793 Y-279.777
G1 X63.016 Y-279.721
G1 X63.253 Y-279.641
G1 X63.506 Y-279.532
G1 X63.773 Y-279.391
G1 X64.044 Y-279.218
G1 X64.333 Y-279
G1 X64.611 Y-278.753
G1 X64.895 Y-278.456
G1 X65.176 Y-278.11
G1 X65.436 Y-277.733
G1 X65.678 Y-277.311
G1 X65.896 Y-276.851
G1 X66.08 Y-276.364
G1 X66.226 Y-275.858
G1 X66.331 Y-275.343
G1 X66.393 Y-274.825
G1 X66.412 Y-274.367
G1 X66.394 Y-273.925
G1 X66.347 Y-273.542
G1 X66.272 Y-273.17
G1 X66.177 Y-272.843
G1 X66.136 Y-272.736
G1 X65.996 Y-272.457
G1 X65.799 Y-272.213
G1 X65.556 Y-272.017
G1 X65.278 Y-271.875
G1 X64.975 Y-271.796
G1 X64.663 Y-271.781
G1 X64.197 Y-271.807
G1 X63.782 Y-271.827
G1 X63.368 Y-271.847
G1 X62.828 Y-271.87
G1 X62.725 Y-271.874
G3 X62.139 Y-272.468 I0.047 J-0.633 F1000
G1 X61.72 Y-279.156
G3 X62.354 Y-279.831 I0.634 J-0.04
G1 X62.954 Y-279.809 F600
G1 X63.368 Y-279.792
G1 X63.782 Y-279.774
G1 X64.424 Y-279.743
G1 X64.706 Y-279.715
G1 X64.911 Y-279.677
G1 X65.123 Y-279.621
G1 X65.361 Y-279.536
G1 X65.6 Y-279.429
G1 X65.866 Y-279.283
G1 X66.126 Y-279.112
G1 X66.406 Y-278.894
G1 X66.68 Y-278.642
G1 X66.953 Y-278.348
G1 X67.226 Y-278.001
G1 X67.481 Y-277.618
G1 X67.714 Y-277.197
G1 X67.923 Y-276.737
G1 X68.1 Y-276.246
G1 X68.239 Y-275.738
G1 X68.336 Y-275.218
G1 X68.391 Y-274.697
G1 X68.402 Y-274.233
G1 X68.377 Y-273.787
G1 X68.325 Y-273.402
G1 X68.243 Y-273.029
G1 X68.143 Y-272.702
G1 X68.093 Y-272.577
G1 X67.947 Y-272.299
G1 X67.746 Y-272.058
G1 X67.498 Y-271.865
G1 X67.216 Y-271.728
G1 X66.911 Y-271.654
G1 X66.597 Y-271.646
G1 X66.267 Y-271.673
G1 X65.853 Y-271.704
G1 X65.439 Y-271.733
G1 X65.025 Y-271.76
G1 X64.663 Y-271.781
G3 X64.088 Y-272.384 I0.06 J-0.632 F1000
G1 X63.78 Y-279.079
G3 X64.424 Y-279.743 I0.634 J-0.029
G1 X64.611 Y-279.733 F600
G1 X65.025 Y-279.711
G1 X65.439 Y-279.687
G1 X65.853 Y-279.661
G1 X66.267 Y-279.632
G1 X66.681 Y-279.602
G1 X66.83 Y-279.583
G1 X67.038 Y-279.538
G1 X67.248 Y-279.476
G1 X67.486 Y-279.383
G1 X67.724 Y-279.268
G1 X67.986 Y-279.114
G1 X68.246 Y-278.932
G1 X68.516 Y-278.708
G1 X68.792 Y-278.439
G1 X69.054 Y-278.14
G1 X69.316 Y-277.786
G1 X69.566 Y-277.385
G1 X69.788 Y-276.955
G1 X69.983 Y-276.491
G1 X70.145 Y-275.994
G1 X70.269 Y-275.481
G1 X70.351 Y-274.958
G1 X70.39 Y-274.437
G1 X70.388 Y-273.972
G1 X70.351 Y-273.537
G1 X70.286 Y-273.15
G1 X70.195 Y-272.787
G1 X70.084 Y-272.459
G1 X70.037 Y-272.35
G1 X69.883 Y-272.077
G1 X69.675 Y-271.842
G1 X69.422 Y-271.656
G1 X69.135 Y-271.527
G1 X68.828 Y-271.462
G1 X68.514 Y-271.463
G1 X68.338 Y-271.483
G1 X67.924 Y-271.526
G1 X67.51 Y-271.566
G1 X67.096 Y-271.604
G1 X66.597 Y-271.646
G3 X66.035 Y-272.276 I0.073 J-0.631 F1000
G1 X66.022 Y-278.966
G3 X66.681 Y-279.602 I0.635 J-0.001
G1 X67.096 Y-279.569 F600
G1 X67.51 Y-279.535
G1 X67.924 Y-279.499
G1 X68.338 Y-279.46
G1 X68.752 Y-279.42
G1 X68.948 Y-279.39
G1 X69.154 Y-279.341
G1 X69.362 Y-279.273
G1 X69.598 Y-279.175
G1 X69.833 Y-279.054
G1 X70.092 Y-278.894
G1 X70.345 Y-278.708
G1 X70.612 Y-278.475
G1 X70.878 Y-278.204
G1 X71.133 Y-277.897
G1 X71.388 Y-277.535
G1 X71.627 Y-277.132
G1 X71.838 Y-276.699
G1 X72.022 Y-276.227
G1 X72.173 Y-275.727
G1 X72.285 Y-275.211
G1 X72.354 Y-274.687
G1 X72.381 Y-274.164
G1 X72.368 Y-273.701
G1 X72.32 Y-273.264
G1 X72.247 Y-272.881
G1 X72.147 Y-272.517
G1 X72.029 Y-272.194
G1 X71.975 Y-272.077
G1 X71.813 Y-271.805
G1 X71.598 Y-271.574
G1 X71.338 Y-271.394
G1 X71.046 Y-271.273
G1 X70.736 Y-271.217
G1 X70.42 Y-271.228
G1 X69.995 Y-271.286
G1 X69.581 Y-271.339
G1 X69.166 Y-271.389
G1 X68.752 Y-271.437
G1 X68.514 Y-271.463
G3 X67.971 Y-272.102 I0.091 J-0.628 F1000
G1 X68.078 Y-278.796
G3 X68.752 Y-279.42 I0.635 J0.01
G1 X69.166 Y-279.377 F600
G1 X69.581 Y-279.332
G1 X69.995 Y-279.284
G1 X70.409 Y-279.234
G1 X70.823 Y-279.183
G1 X71.077 Y-279.136
G1 X71.282 Y-279.081
G1 X71.489 Y-279.007
G1 X71.723 Y-278.901
G1 X71.955 Y-278.774
G1 X72.209 Y-278.606
G1 X72.459 Y-278.41
G1 X72.718 Y-278.171
G1 X72.979 Y-277.888
G1 X73.225 Y-277.574
G1 X73.469 Y-277.206
G1 X73.697 Y-276.792
G1 X73.896 Y-276.351
G1 X74.067 Y-275.875
G1 X74.203 Y-275.371
G1 X74.298 Y-274.853
G1 X74.353 Y-274.327
G1 X74.364 Y-273.806
G1 X74.337 Y-273.343
G1 X74.277 Y-272.912
G1 X74.193 Y-272.53
G1 X74.082 Y-272.172
G1 X73.955 Y-271.852
G1 X73.895 Y-271.732
G1 X73.725 Y-271.465
G1 X73.503 Y-271.24
G1 X73.239 Y-271.068
G1 X72.943 Y-270.956
G1 X72.631 Y-270.909
G1 X72.316 Y-270.929
G1 X72.061 Y-270.973
G1 X71.651 Y-271.041
G1 X70.823 Y-271.17
G1 X70.42 Y-271.228
G3 X69.896 Y-271.875 I0.111 J-0.625 F1000
G1 X70.132 Y-278.573
G3 X70.823 Y-279.183 I0.635 J0.022
G1 X71.237 Y-279.128 F600
G1 X71.651 Y-279.07
G1 X72.066 Y-279.01
G1 X72.48 Y-278.946
G1 X73.015 Y-278.86
G1 X73.201 Y-278.82
G1 X73.406 Y-278.759
G1 X73.611 Y-278.679
G1 X73.842 Y-278.566
G1 X74.07 Y-278.431
G1 X74.32 Y-278.255
G1 X74.564 Y-278.052
G1 X74.817 Y-277.805
G1 X75.07 Y-277.515
G1 X75.307 Y-277.193
G1 X75.541 Y-276.817
G1 X75.757 Y-276.397
G1 X75.943 Y-275.95
G1 X76.099 Y-275.469
G1 X76.22 Y-274.962
G1 X76.301 Y-274.441
G1 X76.34 Y-273.914
G1 X76.336 Y-273.393
G1 X76.295 Y-272.931
G1 X76.223 Y-272.5
G1 X76.126 Y-272.121
G1 X76.006 Y-271.766
G1 X75.869 Y-271.45
G1 X75.804 Y-271.328
G1 X75.625 Y-271.065
G1 X75.395 Y-270.846
G1 X75.124 Y-270.682
G1 X74.824 Y-270.579
G1 X74.509 Y-270.542
G1 X74.193 Y-270.573
G1 X73.722 Y-270.668
G1 X73.308 Y-270.75
G1 X72.894 Y-270.826
G1 X72.48 Y-270.901
G1 X72.316 Y-270.929
G3 X71.812 Y-271.597 I0.13 J-0.622 F1000
G1 X72.302 Y-278.277
G3 X73.015 Y-278.86 I0.633 J0.046
G1 X73.308 Y-278.812 F600
G1 X73.722 Y-278.741
G1 X74.55 Y-278.594
G1 X74.965 Y-278.513
G1 X75.192 Y-278.468
G1 X75.338 Y-278.432
G1 X75.541 Y-278.362
G1 X75.745 Y-278.274
G1 X75.973 Y-278.153
G1 X76.199 Y-278.008
G1 X76.442 Y-277.823
G1 X76.682 Y-277.608
G1 X76.926 Y-277.352
G1 X77.171 Y-277.049
G1 X77.397 Y-276.718
G1 X77.617 Y-276.334
G1 X77.819 Y-275.903
G1 X77.991 Y-275.445
G1 X78.13 Y-274.96
G1 X78.232 Y-274.448
G1 X78.294 Y-273.925
G1 X78.314 Y-273.397
G1 X78.291 Y-272.88
G1 X78.234 Y-272.419
G1 X78.147 Y-271.998
G1 X78.037 Y-271.621
G1 X77.905 Y-271.275
G1 X77.756 Y-270.962
G1 X77.694 Y-270.856
G1 X77.508 Y-270.602
G1 X77.273 Y-270.393
G1 X76.999 Y-270.238
G1 X76.698 Y-270.145
G1 X76.384 Y-270.117
G1 X76.072 Y-270.157
G1 X75.793 Y-270.223
G1 X75.379 Y-270.318
G1 X74.965 Y-270.409
G1 X74.55 Y-270.498
G1 X74.193 Y-270.573
G3 X73.713 Y-271.261 I0.151 J-0.617 F1000
G1 X74.459 Y-277.912
G3 X75.192 Y-278.468 I0.631 J0.071
G1 X75.793 Y-278.348 F600
G1 X76.621 Y-278.174
G1 X77.035 Y-278.082
G1 X77.324 Y-278.016
G1 X77.469 Y-277.975
G1 X77.671 Y-277.897
G1 X77.873 Y-277.8
G1 X78.099 Y-277.668
G1 X78.321 Y-277.514
G1 X78.56 Y-277.317
G1 X78.793 Y-277.092
G1 X79.028 Y-276.824
G1 X79.263 Y-276.509
G1 X79.478 Y-276.167
G1 X79.684 Y-275.772
G1 X79.871 Y-275.331
G1 X80.025 Y-274.864
G1 X80.146 Y-274.372
G1 X80.228 Y-273.857
G1 X80.27 Y-273.331
G1 X80.269 Y-272.803
G1 X80.227 Y-272.291
G1 X80.152 Y-271.834
G1 X80.051 Y-271.424
G1 X79.926 Y-271.051
G1 X79.783 Y-270.715
G1 X79.621 Y-270.406
G1 X79.571 Y-270.328
G1 X79.377 Y-270.083
G1 X79.137 Y-269.884
G1 X78.86 Y-269.741
G1 X78.56 Y-269.658
G1 X78.248 Y-269.64
G1 X77.94 Y-269.687
G1 X77.45 Y-269.815
G1 X77.035 Y-269.921
G1 X76.621 Y-270.024
G1 X76.072 Y-270.157
G3 X75.611 Y-270.861 I0.167 J-0.613 F1000
G1 X76.576 Y-277.484
G3 X77.324 Y-278.016 I0.628 J0.092
G1 X77.45 Y-277.987 F600
G1 X77.864 Y-277.889
G1 X78.278 Y-277.79
G1 X78.692 Y-277.689
G1 X79.106 Y-277.585
G1 X79.334 Y-277.526
G1 X79.534 Y-277.464
G1 X79.728 Y-277.386
G1 X79.928 Y-277.286
G1 X80.145 Y-277.155
G1 X80.363 Y-276.999
G1 X80.595 Y-276.802
G1 X80.818 Y-276.579
G1 X81.051 Y-276.306
G1 X81.27 Y-276.004
G1 X81.481 Y-275.657
G1 X81.681 Y-275.258
G1 X81.854 Y-274.832
G1 X82 Y-274.369
G1 X82.113 Y-273.872
G1 X82.188 Y-273.356
G1 X82.222 Y-272.829
G1 X82.213 Y-272.302
G1 X82.162 Y-271.781
G1 X82.081 Y-271.328
G1 X81.969 Y-270.901
G1 X81.84 Y-270.536
G1 X81.686 Y-270.189
G1 X81.523 Y-269.889
G1 X81.455 Y-269.785
G1 X81.256 Y-269.542
G1 X81.012 Y-269.346
G1 X80.731 Y-269.207
G1 X80.428 Y-269.129
G1 X80.114 Y-269.117
G1 X79.806 Y-269.171
G1 X79.3 Y-269.315
G1 X79.106 Y-269.37
G1 X78.278 Y-269.598
G1 X77.94 Y-269.687
G3 X77.497 Y-270.397 I0.184 J-0.608 F1000
G1 X78.571 Y-277.008
G3 X79.334 Y-277.526 I0.627 J0.102
G1 X79.934 Y-277.37 F600
G1 X80.349 Y-277.26
G1 X80.763 Y-277.147
G1 X81.177 Y-277.033
G1 X81.405 Y-276.969
G1 X81.59 Y-276.906
G1 X81.784 Y-276.823
G1 X81.978 Y-276.721
G1 X82.193 Y-276.584
G1 X82.403 Y-276.426
G1 X82.63 Y-276.224
G1 X82.848 Y-275.997
G1 X83.071 Y-275.723
G1 X83.286 Y-275.41
G1 X83.486 Y-275.064
G1 X83.675 Y-274.664
G1 X83.841 Y-274.227
G1 X83.975 Y-273.764
G1 X84.076 Y-273.269
G1 X84.139 Y-272.751
G1 X84.161 Y-272.224
G1 X84.14 Y-271.695
G1 X84.077 Y-271.176
G1 X83.985 Y-270.722
G1 X83.863 Y-270.297
G1 X83.725 Y-269.932
G1 X83.564 Y-269.591
G1 X83.393 Y-269.292
G1 X83.327 Y-269.197
G1 X83.124 Y-268.959
G1 X82.876 Y-268.77
G1 X82.594 Y-268.637
G1 X82.29 Y-268.565
G1 X81.978 Y-268.559
G1 X81.672 Y-268.619
G1 X81.177 Y-268.77
G1 X80.733 Y-268.901
G1 X80.349 Y-269.014
G1 X79.806 Y-269.171
G3 X79.378 Y-269.894 I0.196 J-0.604 F1000
G1 X80.63 Y-276.471
G3 X81.405 Y-276.969 I0.624 J0.119
G1 X82.005 Y-276.798 F600
G1 X82.419 Y-276.678
G1 X83.248 Y-276.435
G1 X83.504 Y-276.358
G1 X83.645 Y-276.308
G1 X83.839 Y-276.216
G1 X84.032 Y-276.106
G1 X84.245 Y-275.961
G1 X84.453 Y-275.793
G1 X84.675 Y-275.582
G1 X84.888 Y-275.343
G1 X85.103 Y-275.061
G1 X85.312 Y-274.734
G1 X85.501 Y-274.38
G1 X85.677 Y-273.974
G1 X85.831 Y-273.524
G1 X85.951 Y-273.051
G1 X86.035 Y-272.552
G1 X86.081 Y-272.031
G1 X86.085 Y-271.503
G1 X86.046 Y-270.974
G1 X85.967 Y-270.462
G1 X85.86 Y-270.011
G1 X85.728 Y-269.605
G1 X85.577 Y-269.242
G1 X85.409 Y-268.915
G1 X85.225 Y-268.619
G1 X85.187 Y-268.567
G1 X84.981 Y-268.341
G1 X84.732 Y-268.162
G1 X84.452 Y-268.038
G1 X84.153 Y-267.973
G1 X83.846 Y-267.972
G1 X83.546 Y-268.034
G1 X83.248 Y-268.129
G1 X82.419 Y-268.388
G1 X82.005 Y-268.517
G1 X81.672 Y-268.619
G3 X81.259 Y-269.358 I0.207 J-0.6 F1000
G1 X82.723 Y-275.883
G3 X83.504 Y-276.358 I0.62 J0.139
G1 X84.076 Y-276.184 F600
G1 X84.49 Y-276.057
G1 X85.444 Y-275.759
G1 X85.606 Y-275.699
G1 X85.788 Y-275.614
G1 X85.983 Y-275.504
G1 X86.183 Y-275.368
G1 X86.393 Y-275.2
G1 X86.606 Y-274.999
G1 X86.816 Y-274.765
G1 X87.03 Y-274.485
G1 X87.227 Y-274.18
G1 X87.42 Y-273.822
G1 X87.594 Y-273.423
G1 X87.741 Y-272.998
G1 X87.862 Y-272.526
G1 X87.949 Y-272.023
G1 X87.996 Y-271.502
G1 X88.002 Y-270.975
G1 X87.965 Y-270.447
G1 X87.887 Y-269.928
G1 X87.781 Y-269.475
G1 X87.643 Y-269.046
G1 X87.496 Y-268.689
G1 X87.32 Y-268.344
G1 X87.141 Y-268.054
G1 X87.073 Y-267.96
G1 X86.861 Y-267.728
G1 X86.605 Y-267.545
G1 X86.317 Y-267.421
G1 X86.009 Y-267.36
G1 X85.695 Y-267.365
G1 X85.389 Y-267.437
G1 X85.319 Y-267.462
G1 X84.904 Y-267.601
G1 X84.729 Y-267.658
G1 X84.076 Y-267.867
G1 X83.546 Y-268.034
G3 X83.141 Y-268.776 I0.213 J-0.598 F1000
G1 X84.656 Y-275.291
G3 X85.444 Y-275.759 I0.618 J0.144
G1 X86.561 Y-275.406 F600
G1 X86.975 Y-275.274
G1 X87.389 Y-275.139
G1 X87.571 Y-275.069
G1 X87.757 Y-274.98
G1 X87.943 Y-274.872
G1 X88.148 Y-274.729
G1 X88.348 Y-274.565
G1 X88.563 Y-274.357
G1 X88.767 Y-274.126
G1 X88.977 Y-273.844
G1 X89.174 Y-273.532
G1 X89.358 Y-273.179
G1 X89.529 Y-272.775
G1 X89.672 Y-272.343
G1 X89.787 Y-271.877
G1 X89.867 Y-271.378
G1 X89.908 Y-270.856
G1 Y-270.329
G1 X89.865 Y-269.799
G1 X89.78 Y-269.28
G1 X89.668 Y-268.826
G1 X89.525 Y-268.397
G1 X89.373 Y-268.04
G1 X89.193 Y-267.697
G1 X89.011 Y-267.408
G1 X88.901 Y-267.263
G1 X88.681 Y-267.027
G1 X88.415 Y-266.845
G1 X88.116 Y-266.725
G1 X87.798 Y-266.673
G1 X87.476 Y-266.69
G1 X87.165 Y-266.776
G1 X86.975 Y-266.852
G1 X86.561 Y-267.009
G1 X85.932 Y-267.244
G1 X85.733 Y-267.317
G1 X85.389 Y-267.437
G3 X85.002 Y-268.18 I0.23 J-0.592 F1000
G1 X86.597 Y-274.68
G3 X87.389 Y-275.139 I0.617 J0.151
G1 X87.803 Y-275.001 F600
G1 X88.218 Y-274.857
G1 X88.651 Y-274.701
G1 X89.046 Y-274.555
G1 X89.46 Y-274.399
G1 X89.619 Y-274.33
G1 X89.802 Y-274.232
G1 X89.991 Y-274.11
G1 X90.191 Y-273.957
G1 X90.393 Y-273.775
G1 X90.596 Y-273.56
G1 X90.802 Y-273.303
G1 X90.996 Y-273.018
G1 X91.188 Y-272.68
G1 X91.358 Y-272.315
G1 X91.509 Y-271.907
G1 X91.638 Y-271.45
G1 X91.734 Y-270.966
G1 X91.791 Y-270.465
G1 X91.809 Y-269.945
G1 X91.785 Y-269.42
G1 X91.718 Y-268.895
G1 X91.612 Y-268.392
G1 X91.479 Y-267.941
G1 X91.324 Y-267.539
G1 X91.152 Y-267.182
G1 X90.964 Y-266.86
G1 X90.766 Y-266.575
G1 X90.656 Y-266.441
G1 X90.425 Y-266.217
G1 X90.152 Y-266.047
G1 X89.848 Y-265.94
G1 X89.529 Y-265.902
G1 X89.208 Y-265.933
G1 X88.902 Y-266.033
G1 X88.632 Y-266.155
G1 X88.041 Y-266.415
G1 X87.803 Y-266.516
G1 X87.389 Y-266.687
G1 X87.165 Y-266.776
G3 X86.811 Y-267.531 I0.257 J-0.581 F1000
G1 X88.647 Y-273.972
G3 X89.46 Y-274.399 I0.611 J0.174
G1 X89.874 Y-274.242 F600
G1 X90.288 Y-274.077
G1 X90.786 Y-273.873
G1 X91.117 Y-273.733
G1 X91.531 Y-273.552
G1 X91.679 Y-273.478
G1 X91.862 Y-273.367
G1 X92.047 Y-273.233
G1 X92.244 Y-273.065
G1 X92.439 Y-272.869
G1 X92.636 Y-272.637
G1 X92.832 Y-272.365
G1 X93.013 Y-272.064
G1 X93.19 Y-271.71
G1 X93.343 Y-271.329
G1 X93.474 Y-270.909
G1 X93.579 Y-270.443
G1 X93.649 Y-269.948
G1 X93.68 Y-269.439
G1 X93.67 Y-268.919
G1 X93.617 Y-268.397
G1 X93.523 Y-267.88
G1 X93.393 Y-267.393
G1 X93.237 Y-266.951
G1 X93.066 Y-266.569
G1 X92.874 Y-266.22
G1 X92.674 Y-265.916
G1 X92.459 Y-265.64
G1 X92.231 Y-265.392
G1 X92.002 Y-265.179
G1 X91.748 Y-264.979
G1 X91.728 Y-264.966
G1 X91.478 Y-264.838
G1 X91.206 Y-264.769
G1 X90.925 Y-264.764
G1 X90.651 Y-264.821
G1 X90.396 Y-264.94
G1 X90.175 Y-265.112
G1 X89.998 Y-265.33
G1 X89.874 Y-265.582
G3 X89.823 Y-265.916 I0.58 J-0.259 F1000
G1 X89.876 Y-266.356
G1 X90.667 Y-273.036
G3 X91.531 Y-273.552 I0.631 J0.075
G1 X91.744 Y-273.458 F600
G1 X91.945 Y-273.369
G1 X92.359 Y-273.181
G1 X92.773 Y-272.991
G1 X93.187 Y-272.796
G1 X93.535 Y-272.63
G1 X93.667 Y-272.559
G1 X93.847 Y-272.441
G1 X94.024 Y-272.304
G1 X94.217 Y-272.129
G1 X94.4 Y-271.933
G1 X94.593 Y-271.69
G1 X94.772 Y-271.424
G1 X94.948 Y-271.11
G1 X95.11 Y-270.758
G1 X95.248 Y-270.378
G1 X95.368 Y-269.947
G1 X95.457 Y-269.481
G1 X95.51 Y-268.998
G1 X95.525 Y-268.491
G1 X95.498 Y-267.972
G1 X95.429 Y-267.45
G1 X95.318 Y-266.935
G1 X95.167 Y-266.434
G1 X94.979 Y-265.951
G1 X94.755 Y-265.492
G1 X94.514 Y-265.083
G1 X94.266 Y-264.732
G1 X94.022 Y-264.439
G1 X93.768 Y-264.179
G1 X93.513 Y-263.957
G1 X93.257 Y-263.768
G1 X92.99 Y-263.603
G1 X92.738 Y-263.473
G1 X92.462 Y-263.358
G1 X92.205 Y-263.275
G1 X91.938 Y-263.211
G1 X91.674 Y-263.17
G1 X91.662 Y-263.169
G1 X91.334 Y-263.181
G1 X91.017 Y-263.266
G1 X90.726 Y-263.418
G1 X90.476 Y-263.63
G1 X90.279 Y-263.892
G1 X90.144 Y-264.191
G1 X90.078 Y-264.512
G1 X90.079 Y-264.594 F1000
G1 X90.09 Y-264.675
G1 X90.111 Y-264.753
G1 X90.286 Y-265.264
G1 X92.681 Y-272.253
G3 X93.535 Y-272.63 I0.601 J0.206
G1 X93.602 Y-272.598 F600
G1 X93.885 Y-272.63
G1 X93.924 Y-272.649
G1 X94.062 Y-272.709
G1 X94.211 Y-272.724
G1 X94.361 Y-272.721
G1 X94.51 Y-272.705
G1 X94.668 Y-272.673
G1 X94.836 Y-272.626
G1 X95.017 Y-272.558
G1 X95.209 Y-272.468
G1 X95.407 Y-272.355
G1 X95.619 Y-272.211
G1 X95.827 Y-272.043
G1 X96.048 Y-271.834
G1 X96.257 Y-271.6
G1 X96.47 Y-271.321
G1 X96.674 Y-271.004
G1 X96.859 Y-270.657
G1 X97.033 Y-270.257
G1 X97.183 Y-269.819
G1 X97.301 Y-269.357
G1 X97.387 Y-268.852
G1 X97.435 Y-268.311
G1 X97.44 Y-267.744
G1 X97.398 Y-267.164
G1 X97.308 Y-266.579
G1 X97.17 Y-265.996
G1 X96.987 Y-265.431
G1 X96.765 Y-264.894
G1 X96.507 Y-264.391
G1 X96.218 Y-263.925
G1 X95.901 Y-263.493
G1 X95.561 Y-263.101
G1 X95.198 Y-262.746
G1 X94.819 Y-262.429
G1 X94.427 Y-262.152
G1 X94.056 Y-261.933
G1 X93.683 Y-261.75
G1 X93.338 Y-261.615
G1 X92.991 Y-261.51
G1 X92.658 Y-261.438
G1 X92.341 Y-261.395
G1 X92.015 Y-261.378
G1 X91.723 Y-261.386
G1 X91.579 Y-261.402
G1 X91.255 Y-261.474
G1 X90.955 Y-261.617
G1 X90.695 Y-261.823
G1 X90.487 Y-262.082
G1 X90.342 Y-262.381
G1 X90.267 Y-262.704
G1 X90.221 Y-263.101
G1 X90.176 Y-263.515
G1 X90.163 Y-263.641
G3 X90.208 Y-263.923 I0.634 J-0.042 F1000
G1 X90.396 Y-264.383
G1 X93.507 Y-272.008
G1 X93.638 Y-272.331
G3 X93.924 Y-272.649 I0.588 J0.24
G1 X94.43 Y-272.899 F600
G1 X94.73 Y-273.044
G1 X94.874 Y-273.103
G1 X95.016 Y-273.149
G1 X95.163 Y-273.181
G1 X95.317 Y-273.2
G1 X95.483 Y-273.207
G1 X95.662 Y-273.2
G1 X95.862 Y-273.177
G1 X96.068 Y-273.136
G1 X96.297 Y-273.07
G1 X96.528 Y-272.984
G1 X96.774 Y-272.868
G1 X97.031 Y-272.722
G1 X97.286 Y-272.548
G1 X97.555 Y-272.33
G1 X97.816 Y-272.082
G1 X98.074 Y-271.795
G1 X98.332 Y-271.455
G1 X98.57 Y-271.083
G1 X98.792 Y-270.667
G1 X98.997 Y-270.195
G1 X99.173 Y-269.677
G1 X99.311 Y-269.133
G1 X99.411 Y-268.547
G1 X99.466 Y-267.919
G1 X99.47 Y-267.452
G1 X99.444 Y-267.169
G1 X99.365 Y-266.895
G1 X99.236 Y-266.642
G1 X99.06 Y-266.418
G1 X98.844 Y-266.232
G1 X98.597 Y-266.09
G1 X98.404 Y-266.001
G1 X98.157 Y-265.884
G1 X97.951 Y-265.587
G1 X97.988 Y-265.173
G1 X98.01 Y-264.945
G1 X98.017 Y-264.795
G1 X98.001 Y-264.49
G1 X97.956 Y-264.153
G1 X97.882 Y-263.809
G1 X97.768 Y-263.431
G1 X97.616 Y-263.043
G1 X97.427 Y-262.654
G1 X97.19 Y-262.253
G1 X96.91 Y-261.856
G1 X96.59 Y-261.472
G1 X96.238 Y-261.112
G1 X95.855 Y-260.779
G1 X95.447 Y-260.478
G1 X95.02 Y-260.214
G1 X94.576 Y-259.985
G1 X94.123 Y-259.797
G1 X93.694 Y-259.657
G1 X93.261 Y-259.554
G1 X92.887 Y-259.496
G1 X92.503 Y-259.468
G1 X92.161 Y-259.471
G1 X91.823 Y-259.501
G1 X91.724 Y-259.517
G1 X91.42 Y-259.603
G1 X91.141 Y-259.751
G1 X90.9 Y-259.955
G1 X90.708 Y-260.205
G1 X90.572 Y-260.49
G1 X90.501 Y-260.798
G1 X90.369 Y-261.858
G1 X90.267 Y-262.704
G3 X90.704 Y-263.359 I0.633 J-0.051 F1000
G1 X97.184 Y-265.466
G3 X98.01 Y-264.945 I0.196 J0.604
G1 X98.038 Y-264.658 F600
G1 X98.07 Y-264.344
G1 X98.115 Y-263.93
G1 X98.164 Y-263.515
G1 X98.264 Y-262.687
G1 X98.285 Y-262.41
G1 X98.283 Y-262.19
G1 X98.261 Y-261.934
G1 X98.217 Y-261.672
G1 X98.143 Y-261.378
G1 X98.04 Y-261.074
G1 X97.902 Y-260.754
G1 X97.721 Y-260.413
G1 X97.508 Y-260.08
G1 X97.248 Y-259.737
G1 X96.939 Y-259.391
G1 X96.592 Y-259.06
G1 X96.21 Y-258.75
G1 X95.791 Y-258.462
G1 X95.345 Y-258.207
G1 X94.875 Y-257.985
G1 X94.392 Y-257.804
G1 X93.914 Y-257.666
G1 X93.471 Y-257.577
G1 X93.063 Y-257.528
G1 X92.676 Y-257.513
G1 X92.316 Y-257.528
G1 X91.975 Y-257.57
G1 X91.879 Y-257.59
G1 X91.579 Y-257.686
G1 X91.306 Y-257.843
G1 X91.072 Y-258.055
G1 X90.889 Y-258.311
G1 X90.764 Y-258.6
G1 X90.703 Y-258.91
G1 X90.659 Y-259.373
G1 X90.617 Y-259.787
G1 X90.571 Y-260.201
G1 X90.523 Y-260.615
G1 X90.501 Y-260.798
G3 X90.97 Y-261.467 I0.633 J-0.055 F1000
G1 X97.474 Y-263.2
G3 X98.264 Y-262.687 I0.164 J0.614
G1 X98.368 Y-261.858 F600
G1 X98.418 Y-261.444
G1 X98.466 Y-261.03
G1 X98.511 Y-260.615
G1 X98.535 Y-260.388
G1 X98.545 Y-260.188
G1 X98.54 Y-259.975
G1 X98.515 Y-259.741
G1 X98.467 Y-259.489
G1 X98.393 Y-259.219
G1 X98.287 Y-258.928
G1 X98.152 Y-258.631
G1 X97.972 Y-258.31
G1 X97.761 Y-257.994
G1 X97.504 Y-257.669
G1 X97.195 Y-257.337
G1 X96.851 Y-257.022
G1 X96.466 Y-256.723
G1 X96.039 Y-256.444
G1 X95.583 Y-256.195
G1 X95.103 Y-255.981
G1 X94.609 Y-255.807
G1 X94.108 Y-255.674
G1 X93.659 Y-255.593
G1 X93.228 Y-255.551
G1 X92.842 Y-255.544
G1 X92.468 Y-255.568
G1 X92.132 Y-255.616
G1 X91.986 Y-255.649
G1 X91.683 Y-255.754
G1 X91.41 Y-255.921
G1 X91.179 Y-256.142
G1 X91.001 Y-256.408
G1 X90.884 Y-256.706
G1 X90.834 Y-257.023
G1 X90.82 Y-257.301
G1 X90.796 Y-257.715
G1 X90.768 Y-258.13
G1 X90.735 Y-258.544
G1 X90.703 Y-258.91
G3 X91.208 Y-259.565 I0.634 J-0.034 F1000
G1 X97.777 Y-260.922
G3 X98.535 Y-260.388 I0.128 J0.622
G1 X98.554 Y-260.201 F600
G1 X98.593 Y-259.787
G1 X98.63 Y-259.373
G1 X98.665 Y-258.958
G1 X98.696 Y-258.544
G1 X98.723 Y-258.13
G1 X98.725 Y-257.953
G1 X98.709 Y-257.736
G1 X98.674 Y-257.511
G1 X98.613 Y-257.255
G1 X98.528 Y-256.995
G1 X98.409 Y-256.709
G1 X98.258 Y-256.415
G1 X98.07 Y-256.112
G1 X97.834 Y-255.792
G1 X97.567 Y-255.485
G1 X97.248 Y-255.174
G1 X96.878 Y-254.866
G1 X96.473 Y-254.58
G1 X96.035 Y-254.322
G1 X95.567 Y-254.094
G1 X95.078 Y-253.903
G1 X94.574 Y-253.751
G1 X94.08 Y-253.645
G1 X93.619 Y-253.583
G1 X93.2 Y-253.562
G1 X92.805 Y-253.573
G1 X92.443 Y-253.613
G1 X92.101 Y-253.679
G1 X91.958 Y-253.719
G1 X91.656 Y-253.839
G1 X91.388 Y-254.023
G1 X91.166 Y-254.26
G1 X91.001 Y-254.541
G1 X90.901 Y-254.85
G1 X90.872 Y-255.174
G1 X90.873 Y-255.23
G1 X90.874 Y-255.644
G1 X90.867 Y-256.058
G1 X90.857 Y-256.472
G1 X90.841 Y-256.887
G1 X90.834 Y-257.023
G3 X91.371 Y-257.659 I0.635 J-0.009 F1000
G1 X97.994 Y-258.693
G3 X98.723 Y-258.13 I0.098 J0.627
G1 X98.747 Y-257.715 F600
G1 X98.768 Y-257.301
G1 X98.784 Y-256.887
G1 X98.798 Y-256.472
G1 X98.806 Y-256.058
G1 X98.808 Y-255.933
G1 X98.8 Y-255.721
G1 X98.775 Y-255.504
G1 X98.73 Y-255.283
G1 X98.658 Y-255.029
G1 X98.563 Y-254.774
G1 X98.43 Y-254.491
G1 X98.268 Y-254.207
G1 X98.066 Y-253.911
G1 X97.817 Y-253.602
G1 X97.537 Y-253.307
G1 X97.204 Y-253.009
G1 X96.822 Y-252.718
G1 X96.406 Y-252.451
G1 X95.958 Y-252.212
G1 X95.483 Y-252.006
G1 X94.985 Y-251.836
G1 X94.476 Y-251.706
G1 X93.974 Y-251.621
G1 X93.512 Y-251.58
G1 X93.088 Y-251.577
G1 X92.697 Y-251.605
G1 X92.332 Y-251.661
G1 X91.998 Y-251.74
G1 X91.801 Y-251.804
G1 X91.499 Y-251.941
G1 X91.235 Y-252.142
G1 X91.022 Y-252.397
G1 X90.871 Y-252.692
G1 X90.79 Y-253.014
G1 X90.782 Y-253.346
G1 X90.803 Y-253.572
G1 X90.831 Y-253.987
G1 X90.852 Y-254.401
G1 X90.865 Y-254.815
G1 X90.872 Y-255.174
G3 X91.434 Y-255.771 I0.634 J0.034 F1000
G1 X98.101 Y-256.533
G3 X98.808 Y-255.933 I0.072 J0.631
G1 X98.812 Y-255.644 F600
G1 X98.811 Y-255.23
G1 X98.804 Y-254.815
G1 X98.795 Y-254.401
G1 X98.78 Y-253.987
G1 X98.758 Y-253.572
G1 X98.735 Y-253.373
G1 X98.693 Y-253.161
G1 X98.627 Y-252.927
G1 X98.536 Y-252.682
G1 X98.412 Y-252.415
G1 X98.26 Y-252.148
G1 X98.063 Y-251.858
G1 X97.837 Y-251.578
G1 X97.562 Y-251.287
G1 X97.239 Y-250.997
G1 X96.885 Y-250.727
G1 X96.482 Y-250.467
G1 X96.039 Y-250.23
G1 X95.565 Y-250.023
G1 X95.07 Y-249.853
G1 X94.562 Y-249.723
G1 X94.049 Y-249.635
G1 X93.563 Y-249.591
G1 X93.091 Y-249.587
G1 X92.693 Y-249.615
G1 X92.296 Y-249.676
G1 X91.954 Y-249.756
G1 X91.618 Y-249.865
G1 X91.456 Y-249.932
G1 X91.169 Y-250.09
G1 X90.924 Y-250.307
G1 X90.732 Y-250.573
G1 X90.604 Y-250.874
G1 X90.544 Y-251.196
G1 X90.557 Y-251.523
G1 X90.617 Y-251.915
G1 X90.673 Y-252.33
G1 X90.722 Y-252.744
G1 X90.766 Y-253.158
G1 X90.782 Y-253.346
G3 X91.383 Y-253.901 I0.63 J0.079 F1000
G1 X98.093 Y-254.217
G3 X98.758 Y-253.572 I0.03 J0.634
G1 X98.731 Y-253.158 F600
G1 X98.699 Y-252.744
G1 X98.66 Y-252.33
G1 X98.617 Y-251.915
G1 X98.568 Y-251.501
G1 X98.54 Y-251.273
G1 X98.5 Y-251.049
G1 X98.444 Y-250.834
G1 X98.367 Y-250.614
G1 X98.258 Y-250.368
G1 X98.124 Y-250.12
G1 X97.951 Y-249.856
G1 X97.743 Y-249.586
G1 X97.499 Y-249.317
G1 X97.203 Y-249.04
G1 X96.875 Y-248.779
G1 X96.502 Y-248.529
G1 X96.083 Y-248.293
G1 X95.624 Y-248.082
G1 X95.143 Y-247.906
G1 X94.643 Y-247.767
G1 X94.13 Y-247.668
G1 X93.612 Y-247.611
G1 X93.119 Y-247.597
G1 X92.652 Y-247.621
G1 X92.246 Y-247.674
G1 X91.858 Y-247.758
G1 X91.513 Y-247.861
G1 X91.189 Y-247.988
G1 X91.034 Y-248.063
G1 X90.76 Y-248.236
G1 X90.53 Y-248.464
G1 X90.355 Y-248.738
G1 X90.243 Y-249.042
G1 X90.201 Y-249.364
G1 X90.23 Y-249.687
G1 X90.288 Y-249.982
G1 X90.341 Y-250.258
G1 X90.415 Y-250.672
G1 X90.488 Y-251.087
G1 X90.557 Y-251.523
G3 X91.189 Y-252.041 I0.624 J0.117 F1000
G1 X97.914 Y-251.966
G3 X98.54 Y-251.273 I-0.007 J0.635
G1 X98.516 Y-251.087 F600
G1 X98.457 Y-250.672
G1 X98.394 Y-250.258
G1 X98.327 Y-249.844
G1 X98.256 Y-249.43
G1 X98.182 Y-249.015
G1 X98.124 Y-248.763
G1 X98.057 Y-248.553
G1 X97.969 Y-248.34
G1 X97.849 Y-248.103
G1 X97.704 Y-247.866
G1 X97.519 Y-247.613
G1 X97.3 Y-247.359
G1 X97.044 Y-247.105
G1 X96.737 Y-246.847
G1 X96.401 Y-246.607
G1 X96.017 Y-246.378
G1 X95.587 Y-246.166
G1 X95.122 Y-245.981
G1 X94.635 Y-245.832
G1 X94.13 Y-245.72
G1 X93.612 Y-245.649
G1 X93.091 Y-245.619
G1 X92.591 Y-245.631
G1 X92.127 Y-245.679
G1 X91.718 Y-245.756
G1 X91.336 Y-245.859
G1 X90.994 Y-245.982
G1 X90.678 Y-246.125
G1 X90.55 Y-246.196
G1 X90.289 Y-246.38
G1 X90.074 Y-246.615
G1 X89.914 Y-246.891
G1 X89.817 Y-247.195
G1 X89.786 Y-247.512
G1 X89.825 Y-247.829
G1 X89.874 Y-248.04
G1 X90 Y-248.601
G1 X90.09 Y-249.015
G1 X90.178 Y-249.43
G1 X90.23 Y-249.687
G3 X90.889 Y-250.174 I0.618 J0.147 F1000
G1 X97.595 Y-249.738
G3 X98.182 Y-249.015 I-0.041 J0.634
G1 X98.157 Y-248.876 F600
G1 X98.106 Y-248.601
G1 X98.025 Y-248.187
G1 X97.941 Y-247.772
G1 X97.853 Y-247.358
G1 X97.743 Y-246.855
G1 X97.661 Y-246.556
G1 X97.586 Y-246.352
G1 X97.492 Y-246.146
G1 X97.363 Y-245.916
G1 X97.211 Y-245.691
G1 X97.017 Y-245.446
G1 X96.794 Y-245.208
G1 X96.528 Y-244.966
G1 X96.216 Y-244.724
G1 X95.876 Y-244.502
G1 X95.484 Y-244.289
G1 X95.047 Y-244.095
G1 X94.582 Y-243.933
G1 X94.093 Y-243.804
G1 X93.583 Y-243.713
G1 X93.061 Y-243.663
G1 X92.537 Y-243.655
G1 X92.028 Y-243.688
G1 X91.57 Y-243.755
G1 X91.157 Y-243.85
G1 X91.027 Y-243.891
G1 X90.768 Y-244
G1 X90.535 Y-244.157
G1 X90.335 Y-244.354
G1 X90.177 Y-244.586
G3 X90.544 Y-245.477 I0.566 J-0.288 F1000
G1 X96.92 Y-247.572
G3 X97.743 Y-246.855 I0.198 J0.603
G1 X97.671 Y-246.53 F600
G1 X97.577 Y-246.115
G1 X97.476 Y-245.701
G1 X97.353 Y-245.287
G1 X97.329 Y-245.211
G1 X97.185 Y-244.872
G1 X96.956 Y-244.458
G1 X96.915 Y-244.393
G1 X96.654 Y-244.044
G1 X96.501 Y-243.865
G1 X96.262 Y-243.63
G1 X96.087 Y-243.483
G1 X95.718 Y-243.215
G1 X95.672 Y-243.188
G1 X95.258 Y-242.966
G1 X94.842 Y-242.801
G1 X94.43 Y-242.688
G1 X94.016 Y-242.62
G1 X93.602 Y-242.597
G1 X93.187 Y-242.62
G1 X92.773 Y-242.688
G1 X92.359 Y-242.802
G1 X91.945 Y-242.966
G1 X91.531 Y-243.188
G1 X91.485 Y-243.215
G1 X91.117 Y-243.483
G1 X90.941 Y-243.63
G1 X90.703 Y-243.865
G1 X90.55 Y-244.044
G1 X90.288 Y-244.393
G1 X90.247 Y-244.458
G1 X90.018 Y-244.872
G1 X89.874 Y-245.211
G1 X89.85 Y-245.287
G1 X89.732 Y-245.701
G1 X89.66 Y-246.115
G1 X89.633 Y-246.53
G1 X89.653 Y-246.944
G1 X89.717 Y-247.358
G1 X89.825 Y-247.829
G3 X90.394 Y-248.296 I0.613 J0.166 F1000
G1 X90.493 Y-248.303 Z16.008
G1 X90.589 Y-248.31 Z16.031
G1 X90.681 Y-248.317 Z16.069
G1 X90.766 Y-248.323 Z16.121
G1 X90.842 Y-248.328 Z16.186
G1 X90.906 Y-248.332 Z16.262
G1 X90.958 Y-248.336 Z16.347
G1 X90.996 Y-248.339 Z16.439
G1 X91.019 Y-248.34 Z16.536
G1 X91.027 Y-248.341 Z16.635
G1 Z26 F100
G1 X93.798 Y-271.987
G1 Z17.27
G1 Z16.635 F1000
G1 X93.803 Y-271.994 Z16.536
G1 X93.815 Y-272.013 Z16.439
G1 X93.836 Y-272.045 Z16.347
G1 X93.865 Y-272.088 Z16.262
G1 X93.901 Y-272.142 Z16.186
G1 X93.943 Y-272.205 Z16.121
G1 X93.989 Y-272.276 Z16.069
G1 X94.04 Y-272.353 Z16.031
G1 X94.094 Y-272.434 Z16.008
G1 X94.148 Y-272.517 Z16
G3 X94.73 Y-273.044 I1.32 J0.872
G1 X95.258 Y-273.291 F600
G1 X95.672 Y-273.479
G1 X96.087 Y-273.663
G1 X96.229 Y-273.718
G1 X96.375 Y-273.76
G1 X96.538 Y-273.793
G1 X96.716 Y-273.815
G1 X96.918 Y-273.823
G1 X97.129 Y-273.815
G1 X97.366 Y-273.787
G1 X97.609 Y-273.738
G1 X97.876 Y-273.661
G1 X98.154 Y-273.556
G1 X98.439 Y-273.422
G1 X98.744 Y-273.247
G1 X99.043 Y-273.042
G1 X99.353 Y-272.791
G1 X99.67 Y-272.488
G1 X99.968 Y-272.153
G1 X100.264 Y-271.762
G1 X100.552 Y-271.311
G1 X100.813 Y-270.82
G1 X101.044 Y-270.283
G1 X101.231 Y-269.733
G1 X101.353 Y-269.247
G1 X101.428 Y-268.797
G1 X101.462 Y-268.404
G1 X101.463 Y-268.306
G1 X101.435 Y-268.012
G1 X101.349 Y-267.729
G1 X101.209 Y-267.468
G1 X101.019 Y-267.241
G1 X100.789 Y-267.056
G1 X100.526 Y-266.92
G1 X100.297 Y-266.83
G1 X100.228 Y-266.801
G3 X99.47 Y-267.054 I-0.223 J-0.595 F1000
G1 X95.83 Y-272.751
G3 X96.087 Y-273.663 I0.535 J-0.342
G1 X96.501 Y-273.845 F600
G1 X96.915 Y-274.02
G1 X97.329 Y-274.192
G1 X97.567 Y-274.287
G1 X97.743 Y-274.355
G1 X97.886 Y-274.402
G1 X98.06 Y-274.441
G1 X98.252 Y-274.468
G1 X98.464 Y-274.48
G1 X98.699 Y-274.475
G1 X98.948 Y-274.449
G1 X99.225 Y-274.398
G1 X99.506 Y-274.322
G1 X99.819 Y-274.211
G1 X100.133 Y-274.069
G1 X100.466 Y-273.885
G1 X100.815 Y-273.654
G1 X101.155 Y-273.388
G1 X101.507 Y-273.062
G1 X101.859 Y-272.681
G1 X102.186 Y-272.264
G1 X102.49 Y-271.805
G1 X102.762 Y-271.311
G1 X102.985 Y-270.816
G1 X103.149 Y-270.359
G1 X103.259 Y-269.953
G1 X103.334 Y-269.546
G1 X103.37 Y-269.189
G1 X103.374 Y-269.031
G1 X103.348 Y-268.72
G1 X103.257 Y-268.422
G1 X103.106 Y-268.148
G1 X102.901 Y-267.913
G1 X102.651 Y-267.726
G1 X102.368 Y-267.595
G1 X101.885 Y-267.429
G1 X101.471 Y-267.281
G1 X101.056 Y-267.125
G1 X100.642 Y-266.966
G1 X100.526 Y-266.92
G3 X99.718 Y-267.298 I-0.213 J-0.598 F1000
G1 X97.398 Y-273.551
G3 X97.743 Y-274.355 I0.595 J-0.221
G1 X98.157 Y-274.515 F600
G1 X98.572 Y-274.672
G1 X98.986 Y-274.823
G1 X99.4 Y-274.969
G1 X99.669 Y-275.046
G1 X99.85 Y-275.083
G1 X100.06 Y-275.108
G1 X100.282 Y-275.116
G1 X100.536 Y-275.106
G1 X100.8 Y-275.073
G1 X101.1 Y-275.012
G1 X101.402 Y-274.924
G1 X101.739 Y-274.796
G1 X102.079 Y-274.635
G1 X102.433 Y-274.43
G1 X102.807 Y-274.172
G1 X103.169 Y-273.877
G1 X103.528 Y-273.532
G1 X103.876 Y-273.139
G1 X104.198 Y-272.712
G1 X104.488 Y-272.254
G1 X104.739 Y-271.778
G1 X104.93 Y-271.331
G1 X105.079 Y-270.889
G1 X105.175 Y-270.504
G1 X105.239 Y-270.115
G1 X105.267 Y-269.768
G1 X105.268 Y-269.581
G1 X105.234 Y-269.26
G1 X105.131 Y-268.955
G1 X104.965 Y-268.679
G1 X104.743 Y-268.445
G1 X104.475 Y-268.265
G1 X104.175 Y-268.147
G1 X103.903 Y-268.073
G1 X103.541 Y-267.969
G1 X103.127 Y-267.843
G1 X102.713 Y-267.711
G1 X102.405 Y-267.608
G1 X102.368 Y-267.595
G3 X101.598 Y-267.961 I-0.183 J-0.608 F1000
G1 X99.045 Y-274.135
G3 X99.4 Y-274.969 I0.587 J-0.243
G1 X99.829 Y-275.116 F600
G1 X100.228 Y-275.249
G1 X100.642 Y-275.382
G1 X101.119 Y-275.53
G1 X101.471 Y-275.634
G1 X101.669 Y-275.679
G1 X101.866 Y-275.707
G1 X102.095 Y-275.722
G1 X102.335 Y-275.718
G1 X102.611 Y-275.691
G1 X102.893 Y-275.64
G1 X103.212 Y-275.556
G1 X103.533 Y-275.443
G1 X103.88 Y-275.288
G1 X104.242 Y-275.09
G1 X104.6 Y-274.856
G1 X104.971 Y-274.568
G1 X105.339 Y-274.232
G1 X105.687 Y-273.858
G1 X106.012 Y-273.448
G1 X106.306 Y-273.009
G1 X106.565 Y-272.544
G1 X106.777 Y-272.079
G1 X106.939 Y-271.633
G1 X107.052 Y-271.224
G1 X107.126 Y-270.831
G1 X107.166 Y-270.466
G1 X107.175 Y-270.114
G1 X107.167 Y-269.968
G1 X107.115 Y-269.651
G1 X106.997 Y-269.353
G1 X106.816 Y-269.087
G1 X106.583 Y-268.867
G1 X106.307 Y-268.701
G1 X106.003 Y-268.6
G1 X105.612 Y-268.514
G1 X105.198 Y-268.416
G1 X104.784 Y-268.31
G1 X104.263 Y-268.171
G1 X104.175 Y-268.147
G3 X103.436 Y-268.542 I-0.145 J-0.618 F1000
G1 X101.078 Y-274.808
G3 X101.471 Y-275.634 I0.594 J-0.224
G1 X101.885 Y-275.75 F600
G1 X102.299 Y-275.863
G1 X102.713 Y-275.973
G1 X103.127 Y-276.081
G1 X103.541 Y-276.182
G1 X103.779 Y-276.224
G1 X103.992 Y-276.245
G1 X104.218 Y-276.249
G1 X104.477 Y-276.232
G1 X104.746 Y-276.193
G1 X105.045 Y-276.125
G1 X105.36 Y-276.026
G1 X105.687 Y-275.893
G1 X106.04 Y-275.715
G1 X106.387 Y-275.504
G1 X106.746 Y-275.244
G1 X107.11 Y-274.933
G1 X107.461 Y-274.582
G1 X107.79 Y-274.194
G1 X108.093 Y-273.772
G1 X108.365 Y-273.321
G1 X108.6 Y-272.849
G1 X108.79 Y-272.377
G1 X108.928 Y-271.932
G1 X109.021 Y-271.521
G1 X109.076 Y-271.131
G1 X109.098 Y-270.765
G1 X109.091 Y-270.418
G1 X109.075 Y-270.255
G1 X109.007 Y-269.936
G1 X108.871 Y-269.64
G1 X108.674 Y-269.381
G1 X108.425 Y-269.172
G1 X108.136 Y-269.021
G1 X107.822 Y-268.938
G1 X107.683 Y-268.917
G1 X107.269 Y-268.847
G1 X106.855 Y-268.77
G1 X106.44 Y-268.69
G1 X106.003 Y-268.6
G3 X105.289 Y-269.018 I-0.113 J-0.625 F1000
G1 X103.113 Y-275.365
G3 X103.541 Y-276.182 I0.601 J-0.206
G1 X103.956 Y-276.277 F600
G1 X104.37 Y-276.368
G1 X104.784 Y-276.453
G1 X105.198 Y-276.535
G1 X105.612 Y-276.613
G1 X105.84 Y-276.654
G1 X105.989 Y-276.673
G1 X106.207 Y-276.682
G1 X106.438 Y-276.673
G1 X106.699 Y-276.641
G1 X106.973 Y-276.586
G1 X107.271 Y-276.5
G1 X107.586 Y-276.381
G1 X107.909 Y-276.228
G1 X108.256 Y-276.029
G1 X108.597 Y-275.794
G1 X108.943 Y-275.514
G1 X109.29 Y-275.181
G1 X109.624 Y-274.806
G1 X109.933 Y-274.398
G1 X110.212 Y-273.959
G1 X110.458 Y-273.495
G1 X110.665 Y-273.014
G1 X110.825 Y-272.542
G1 X110.938 Y-272.089
G1 X111.006 Y-271.681
G1 X111.04 Y-271.286
G1 X111.042 Y-270.924
G1 X111.015 Y-270.577
G1 X110.989 Y-270.408
G1 X110.903 Y-270.095
G1 X110.752 Y-269.808
G1 X110.541 Y-269.56
G1 X110.282 Y-269.365
G1 X109.987 Y-269.23
G1 X109.669 Y-269.164
G1 X109.34 Y-269.132
G1 X108.925 Y-269.085
G1 X108.511 Y-269.035
G1 X108.097 Y-268.979
G1 X107.822 Y-268.938
G3 X107.137 Y-269.4 I-0.073 J-0.631 F1000
G1 X105.361 Y-275.865
G3 X105.84 Y-276.654 I0.612 J-0.168
G1 X106.026 Y-276.688 F600
G1 X106.44 Y-276.756
G1 X106.855 Y-276.82
G1 X107.269 Y-276.878
G1 X107.683 Y-276.93
G1 X108.097 Y-276.979
G1 X108.266 Y-276.99
G1 X108.486 Y-276.986
G1 X108.717 Y-276.963
G1 X108.978 Y-276.916
G1 X109.249 Y-276.844
G1 X109.544 Y-276.74
G1 X109.855 Y-276.601
G1 X110.169 Y-276.429
G1 X110.506 Y-276.209
G1 X110.835 Y-275.953
G1 X111.165 Y-275.651
G1 X111.492 Y-275.3
G1 X111.804 Y-274.905
G1 X112.088 Y-274.479
G1 X112.341 Y-274.025
G1 X112.559 Y-273.549
G1 X112.737 Y-273.058
G1 X112.868 Y-272.58
G1 X112.954 Y-272.12
G1 X112.998 Y-271.712
G1 X113.009 Y-271.315
G1 X112.989 Y-270.956
G1 X112.942 Y-270.609
G1 X112.904 Y-270.436
G1 X112.8 Y-270.126
G1 X112.63 Y-269.846
G1 X112.402 Y-269.611
G1 X112.129 Y-269.431
G1 X111.822 Y-269.316
G1 X111.498 Y-269.27
G1 X111.41 Y-269.268
G1 X110.996 Y-269.251
G1 X110.582 Y-269.231
G1 X110.168 Y-269.205
G1 X109.754 Y-269.172
G1 X109.669 Y-269.164
G3 X109.009 Y-269.662 I-0.04 J-0.634 F1000
G1 X107.573 Y-276.216
G3 X108.097 Y-276.979 I0.62 J-0.136
G1 X108.511 Y-277.026 F600
G1 X108.925 Y-277.067
G1 X109.34 Y-277.103
G1 X109.754 Y-277.133
G1 X110.168 Y-277.158
G1 X110.396 Y-277.169
G1 X110.584
G1 X110.804 Y-277.151
G1 X111.035 Y-277.113
G1 X111.294 Y-277.049
G1 X111.563 Y-276.959
G1 X111.851 Y-276.837
G1 X112.156 Y-276.677
G1 X112.46 Y-276.485
G1 X112.783 Y-276.242
G1 X113.098 Y-275.963
G1 X113.408 Y-275.642
G1 X113.712 Y-275.27
G1 X113.999 Y-274.856
G1 X114.257 Y-274.412
G1 X114.48 Y-273.942
G1 X114.667 Y-273.454
G1 X114.813 Y-272.954
G1 X114.913 Y-272.471
G1 X114.971 Y-272.007
G1 X114.988 Y-271.6
G1 X114.973 Y-271.202
G1 X114.931 Y-270.846
G1 X114.863 Y-270.504
G1 X114.771 Y-270.182
G1 X114.722 Y-270.052
G1 X114.585 Y-269.777
G1 X114.393 Y-269.535
G1 X114.156 Y-269.339
G1 X113.883 Y-269.196
G1 X113.587 Y-269.112
G1 X113.279 Y-269.092
G1 X112.974 Y-269.135
G1 X112.685 Y-269.241
G3 X112.389 Y-269.578 I0.298 J-0.561 F1000
G1 X112.274 Y-269.884
G1 X109.855 Y-276.313
G3 X110.396 Y-277.169 I0.594 J-0.224
G1 X110.582 Y-277.178 F600
G1 X110.996 Y-277.195
G1 X111.41 Y-277.21
G1 X111.825 Y-277.219
G1 X112.239 Y-277.226
G1 X112.653 Y-277.229
G1 X112.869 Y-277.218
G1 X113.089 Y-277.19
G1 X113.313 Y-277.142
G1 X113.569 Y-277.065
G1 X113.827 Y-276.965
G1 X114.111 Y-276.826
G1 X114.398 Y-276.658
G1 X114.695 Y-276.449
G1 X115.003 Y-276.193
G1 X115.298 Y-275.905
G1 X115.593 Y-275.567
G1 X115.88 Y-275.18
G1 X116.143 Y-274.756
G1 X116.377 Y-274.303
G1 X116.576 Y-273.826
G1 X116.739 Y-273.327
G1 X116.861 Y-272.819
G1 X116.941 Y-272.305
G1 X116.978 Y-271.814
G1 X116.975 Y-271.353
G1 X116.94 Y-270.95
G1 X116.874 Y-270.558
G1 X116.788 Y-270.216
G1 X116.674 Y-269.879
G1 X116.546 Y-269.582
G1 X116.394 Y-269.296
G1 X116.228 Y-269.036
G1 X116.049 Y-268.8
G1 X115.989 Y-268.733
G1 X115.774 Y-268.536
G1 X115.525 Y-268.384
G1 X115.25 Y-268.284
G1 X114.962 Y-268.24
G1 X114.67 Y-268.254
G1 X114.387 Y-268.324
G1 X114.123 Y-268.449
G1 X114.06 Y-268.487
G1 X113.895 Y-268.583
G1 X113.481 Y-268.819
G3 X113.187 Y-269.261 I0.334 J-0.54 F1000
G1 X113.15 Y-269.496
G1 X112.052 Y-276.496
G3 X112.653 Y-277.229 I0.627 J-0.098
G1 X113.067 F600
G1 X113.481 Y-277.226
G1 X113.895 Y-277.203
G1 X114.026 Y-277.187
G1 X114.309 Y-277.137
G1 X114.724 Y-277.034
G1 X115.138 Y-276.912
G1 X115.503 Y-276.773
G1 X115.552 Y-276.752
G1 X115.966 Y-276.536
G1 X116.38 Y-276.303
G1 X116.778 Y-276.049
G1 X117.034 Y-275.855
G1 X117.282 Y-275.633
G1 X117.542 Y-275.359
G1 X117.79 Y-275.054
G1 X118.028 Y-274.706
G1 X118.255 Y-274.309
G1 X118.458 Y-273.876
G1 X118.63 Y-273.418
G1 X118.767 Y-272.939
G1 X118.867 Y-272.442
G1 X118.927 Y-271.938
G1 X118.946 Y-271.429
G1 X118.924 Y-270.926
G1 X118.863 Y-270.431
G1 X118.764 Y-269.95
G1 X118.637 Y-269.515
G1 X118.482 Y-269.107
G1 X118.319 Y-268.764
G1 X118.127 Y-268.432
G1 X117.935 Y-268.155
G1 X117.715 Y-267.886
G1 X117.5 Y-267.662
G1 X117.451 Y-267.619
G1 X117.186 Y-267.432
G1 X116.887 Y-267.307
G1 X116.568 Y-267.25
G1 X116.243 Y-267.264
G1 X115.93 Y-267.349
G1 X115.642 Y-267.499
G1 X115.552 Y-267.56
G1 X115.402 Y-267.658
G1 X115.138 Y-267.827
G1 X114.724 Y-268.086
G1 X114.309 Y-268.337
G1 X114.123 Y-268.449
G3 X113.85 Y-269.13 I0.345 J-0.533 F1000
G1 X113.851 Y-269.134
G1 X115.469 Y-275.888
G3 X116.38 Y-276.303 I0.618 J0.148
G1 X117.008 Y-275.944 F600
G1 X117.737 Y-275.53
G1 X118.037 Y-275.356
G1 X118.451 Y-275.109
G1 X118.865 Y-274.857
G1 X119.14 Y-274.667
G1 X119.333 Y-274.51
G1 X119.524 Y-274.328
G1 X119.72 Y-274.107
G1 X119.913 Y-273.852
G1 X120.096 Y-273.565
G1 X120.273 Y-273.228
G1 X120.428 Y-272.868
G1 X120.564 Y-272.466
G1 X120.675 Y-272.022
G1 X120.753 Y-271.552
G1 X120.794 Y-271.066
G1 X120.796 Y-270.563
G1 X120.757 Y-270.056
G1 X120.677 Y-269.547
G1 X120.557 Y-269.05
G1 X120.397 Y-268.565
G1 X120.213 Y-268.126
G1 X120.01 Y-267.735
G1 X119.8 Y-267.398
G1 X119.574 Y-267.094
G1 X119.34 Y-266.827
G1 X119.101 Y-266.594
G1 X118.978 Y-266.493
G1 X118.71 Y-266.316
G1 X118.409 Y-266.201
G1 X118.091 Y-266.154
G1 X117.77 Y-266.176
G1 X117.461 Y-266.268
G1 X117.18 Y-266.424
G1 X116.794 Y-266.696
G1 X116.603 Y-266.83
G1 X116.38 Y-266.987
G1 X115.966 Y-267.282
G1 X115.642 Y-267.499
G3 X115.426 Y-268.251 I0.372 J-0.514 F1000
G1 X117.965 Y-274.541
G3 X118.865 Y-274.857 I0.589 J0.238
G1 X119.117 Y-274.701 F600
G1 X119.279 Y-274.6
G1 X119.769 Y-274.287
G1 X120.108 Y-274.064
G1 X120.391 Y-273.873
G1 X120.522 Y-273.782
G1 X120.979 Y-273.458
G1 X121.214 Y-273.274
G1 X121.385 Y-273.116
G1 X121.549 Y-272.939
G1 X121.722 Y-272.719
G1 X121.882 Y-272.478
G1 X122.042 Y-272.188
G1 X122.183 Y-271.876
G1 X122.31 Y-271.521
G1 X122.418 Y-271.122
G1 X122.495 Y-270.705
G1 X122.542 Y-270.249
G1 X122.554 Y-269.762
G1 X122.525 Y-269.258
G1 X122.454 Y-268.751
G1 X122.342 Y-268.246
G1 X122.19 Y-267.751
G1 X121.999 Y-267.272
G1 X121.786 Y-266.841
G1 X121.548 Y-266.444
G1 X121.317 Y-266.12
G1 X121.062 Y-265.817
G1 X120.815 Y-265.568
G1 X120.548 Y-265.339
G1 X120.451 Y-265.269
G1 X120.173 Y-265.109
G1 X119.868 Y-265.013
G1 X119.549 Y-264.985
G1 X119.231 Y-265.026
G1 X118.93 Y-265.134
G1 X118.659 Y-265.305
G1 X118.451 Y-265.47
G1 X118.037 Y-265.786
G1 X117.755 Y-266.001
G1 X117.623 Y-266.1
G1 X117.18 Y-266.424
G3 X116.998 Y-267.219 I0.384 J-0.506 F1000
G1 X120.066 Y-273.216
G3 X120.979 Y-273.458 I0.565 J0.289
G1 X121.764 Y-272.904 F600
G1 X122.178 Y-272.603
G1 X122.593 Y-272.294
G1 X122.867 Y-272.086
G1 X123.062 Y-271.922
G1 X123.218 Y-271.767
G1 X123.37 Y-271.59
G1 X123.526 Y-271.376
G1 X123.672 Y-271.138
G1 X123.816 Y-270.854
G1 X123.941 Y-270.55
G1 X124.053 Y-270.197
G1 X124.142 Y-269.815
G1 X124.203 Y-269.405
G1 X124.234 Y-268.952
G1 X124.228 Y-268.474
G1 X124.182 Y-267.985
G1 X124.095 Y-267.485
G1 X123.965 Y-266.984
G1 X123.793 Y-266.489
G1 X123.583 Y-266.011
G1 X123.341 Y-265.563
G1 X123.092 Y-265.178
G1 X122.834 Y-264.843
G1 X122.573 Y-264.554
G1 X122.305 Y-264.302
G1 X122.037 Y-264.088
G1 X121.88 Y-263.982
G1 X121.592 Y-263.831
G1 X121.277 Y-263.746
G1 X120.951 Y-263.732
G1 X120.63 Y-263.79
G1 X120.33 Y-263.916
G1 X120.064 Y-264.105
G1 X119.797 Y-264.344
G1 X119.693 Y-264.435
G1 X119.279 Y-264.792
G1 X118.865 Y-265.14
G1 X118.826 Y-265.173
G1 X118.659 Y-265.305
G3 X118.524 Y-266.113 I0.412 J-0.484 F1000
G1 X121.955 Y-271.891
G3 X122.5 Y-272.202 I0.546 J0.324
G1 X122.501
G3 X122.867 Y-272.086 J0.635
G1 X123.241 Y-271.801 F600
G1 X123.421 Y-271.663
G1 X123.835 Y-271.331
G1 X124.265 Y-270.973
G1 X124.663 Y-270.631
G1 X124.858 Y-270.446
G1 X125.004 Y-270.282
G1 X125.145 Y-270.096
G1 X125.287 Y-269.873
G1 X125.42 Y-269.624
G1 X125.543 Y-269.339
G1 X125.653 Y-269.015
G1 X125.74 Y-268.67
G1 X125.807 Y-268.274
G1 X125.843 Y-267.857
G1 X125.845 Y-267.414
G1 X125.81 Y-266.935
G1 X125.733 Y-266.439
G1 X125.613 Y-265.94
G1 X125.452 Y-265.446
G1 X125.251 Y-264.964
G1 X125.012 Y-264.5
G1 X124.75 Y-264.08
G1 X124.471 Y-263.703
G1 X124.202 Y-263.393
G1 X123.916 Y-263.115
G1 X123.64 Y-262.885
G1 X123.353 Y-262.684
G1 X123.234 Y-262.613
G1 X122.942 Y-262.482
G1 X122.629 Y-262.416
G1 X122.309 Y-262.418
G1 X121.997 Y-262.49
G1 X121.707 Y-262.627
G1 X121.454 Y-262.823
G1 X121.35 Y-262.923
G1 X121.161 Y-263.101
G1 X120.716 Y-263.515
G1 X120.522 Y-263.693
G1 X120.261 Y-263.93
G1 X120.064 Y-264.105
G3 X119.977 Y-264.919 I0.439 J-0.459 F1000
G1 X123.741 Y-270.49
G3 X124.663 Y-270.631 I0.526 J0.355
G1 X124.748 Y-270.558 F600
G1 X125.077 Y-270.269
G1 X125.681 Y-269.73
G1 X125.906 Y-269.525
G1 X126.134 Y-269.315
G1 X126.32 Y-269.143
G1 X126.515 Y-268.944
G1 X126.654 Y-268.778
G1 X126.783 Y-268.595
G1 X126.917 Y-268.369
G1 X127.036 Y-268.126
G1 X127.15 Y-267.835
G1 X127.243 Y-267.527
G1 X127.32 Y-267.174
G1 X127.371 Y-266.787
G1 X127.393 Y-266.382
G1 X127.38 Y-265.934
G1 X127.329 Y-265.462
G1 X127.238 Y-264.983
G1 X127.104 Y-264.495
G1 X126.927 Y-264.009
G1 X126.708 Y-263.531
G1 X126.452 Y-263.073
G1 X126.165 Y-262.645
G1 X125.878 Y-262.283
G1 X125.584 Y-261.968
G1 X125.296 Y-261.705
G1 X125.002 Y-261.477
G1 X124.715 Y-261.289
G1 X124.412 Y-261.124
G1 X124.13 Y-260.999
G1 X123.822 Y-260.891
G1 X123.728 Y-260.866
G1 X123.426 Y-260.822
G1 X123.122 Y-260.848
G1 X122.832 Y-260.943
G1 X122.571 Y-261.101
G1 X122.352 Y-261.314
G1 X122.188 Y-261.571
G1 X122.086 Y-261.858
G3 X122.122 Y-262.321 I0.607 J-0.186 F1000
G1 X122.257 Y-262.6
G1 X125.335 Y-268.939
G3 X126.32 Y-269.143 I0.571 J0.277
G1 X126.582 Y-268.901 F600
G1 X127.019 Y-268.487
G1 X127.148 Y-268.36
G1 X127.562 Y-267.947
G1 X127.843 Y-267.658
G1 X127.977 Y-267.52
G1 X128.126 Y-267.351
G1 X128.255 Y-267.178
G1 X128.377 Y-266.985
G1 X128.498 Y-266.754
G1 X128.606 Y-266.5
G1 X128.702 Y-266.21
G1 X128.782 Y-265.885
G1 X128.839 Y-265.537
G1 X128.871 Y-265.142
G1 Y-264.732
G1 X128.836 Y-264.293
G1 X128.759 Y-263.821
G1 X128.64 Y-263.337
G1 X128.48 Y-262.854
G1 X128.277 Y-262.376
G1 X128.034 Y-261.912
G1 X127.755 Y-261.469
G1 X127.443 Y-261.052
G1 X127.103 Y-260.667
G1 X126.738 Y-260.315
G1 X126.379 Y-260.02
G1 X126.015 Y-259.767
G1 X125.684 Y-259.575
G1 X125.344 Y-259.412
G1 X125.026 Y-259.29
G1 X124.711 Y-259.198
G1 X124.396 Y-259.132
G1 X124.108 Y-259.096
G1 X123.955 Y-259.089
G1 X123.659 Y-259.106
G1 X123.372 Y-259.181
G1 X123.106 Y-259.311
G1 X122.871 Y-259.492
G1 X122.677 Y-259.717
G1 X122.532 Y-259.975
G1 X122.44 Y-260.257
G1 X122.273 Y-261.03
G1 X122.178 Y-261.455
G1 X122.086 Y-261.858
G3 X122.249 Y-262.416 I0.623 J-0.121 F1000
G1 X122.374 Y-262.548
G1 X127.078 Y-267.498
G3 X127.977 Y-267.52 I0.46 J0.437
G1 X128.246 Y-267.244 F600
G1 X128.391 Y-267.1
G1 X128.622 Y-266.83
G1 X128.805 Y-266.588
G1 X128.911 Y-266.415
G1 X129.14 Y-266.001
G1 X129.219 Y-265.817
G1 X129.3 Y-265.587
G1 X129.427 Y-265.173
G1 X129.543 Y-264.758
G1 X129.633 Y-264.415
G1 X129.753 Y-263.93
G1 X129.806 Y-263.702
G1 X129.863 Y-263.388
G1 X129.891 Y-263.1
G1 X129.897 Y-262.767
G1 X129.876 Y-262.424
G1 X129.822 Y-262.047
G1 X129.73 Y-261.642
G1 X129.603 Y-261.235
G1 X129.431 Y-260.807
G1 X129.213 Y-260.372
G1 X128.951 Y-259.939
G1 X128.652 Y-259.524
G1 X128.318 Y-259.132
G1 X127.955 Y-258.768
G1 X127.566 Y-258.437
G1 X127.156 Y-258.141
G1 X126.732 Y-257.884
G1 X126.322 Y-257.679
G1 X125.907 Y-257.511
G1 X125.541 Y-257.396
G1 X125.165 Y-257.311
G1 X124.827 Y-257.263
G1 X124.479 Y-257.241
G1 X124.167 Y-257.246
G1 X124.141 Y-257.249
G1 X123.837 Y-257.311
G1 X123.553 Y-257.436
G1 X123.301 Y-257.617
G1 X123.092 Y-257.847
G1 X122.935 Y-258.115
G1 X122.838 Y-258.41
G1 X122.44 Y-260.257
G3 X122.774 Y-260.933 I0.625 J-0.112 F1000
G1 X128.901 Y-264.1
G3 X129.806 Y-263.702 I0.292 J0.564
G1 X129.85 Y-263.515 F600
G1 X129.944 Y-263.101
G1 X130.047 Y-262.632
G1 X130.217 Y-261.858
G1 X130.304 Y-261.444
G1 X130.394 Y-261.03
G1 X130.426 Y-260.833
G1 X130.445 Y-260.593
G1 X130.446 Y-260.339
G1 X130.423 Y-260.051
G1 X130.374 Y-259.748
G1 X130.294 Y-259.422
G1 X130.178 Y-259.07
G1 X130.029 Y-258.719
G1 X129.834 Y-258.346
G1 X129.594 Y-257.963
G1 X129.316 Y-257.591
G1 X128.997 Y-257.229
G1 X128.635 Y-256.879
G1 X128.24 Y-256.554
G1 X127.816 Y-256.259
G1 X127.372 Y-256
G1 X126.909 Y-255.778
G1 X126.449 Y-255.601
G1 X126.03 Y-255.478
G1 X125.636 Y-255.396
G1 X125.261 Y-255.348
G1 X124.906 Y-255.332
G1 X124.805 Y-255.335
G1 X124.531 Y-255.371
G1 X124.269 Y-255.456
G1 X124.027 Y-255.589
G1 X123.814 Y-255.764
G1 X123.636 Y-255.976
G1 X123.58 Y-256.058
G1 X123.421 Y-256.336
G1 X123.36 Y-256.472
G1 X123.195 Y-256.887
G1 X123.078 Y-257.301
G1 X122.838 Y-258.41
G3 X123.242 Y-259.118 I0.625 J-0.112 F1000
G1 X129.556 Y-261.47
G3 X130.394 Y-261.03 I0.222 J0.595
G1 X130.84 Y-258.958 F600
G1 X130.876 Y-258.75
G1 X130.903 Y-258.438
G1 X130.904 Y-258.2
G1 X130.886 Y-257.954
G1 X130.842 Y-257.671
G1 X130.773 Y-257.384
G1 X130.669 Y-257.065
G1 X130.533 Y-256.738
G1 X130.358 Y-256.4
G1 X130.136 Y-256.042
G1 X129.877 Y-255.692
G1 X129.573 Y-255.343
G1 X129.22 Y-254.998
G1 X128.827 Y-254.672
G1 X128.774 Y-254.635
G1 X128.702 Y-254.588
G1 X128.629 Y-254.545
G1 X128.552 Y-254.506
G3 X127.747 Y-255.397 I-0.25 J-0.584 F1000
G1 X129.698 Y-258.928
G3 X130.876 Y-258.75 I0.556 J0.307
G1 X130.904 Y-258.544 F600
G1 X130.927 Y-258.13
G1 X130.904 Y-257.715
G1 X130.876 Y-257.509
G1 X130.839 Y-257.301
G1 X130.722 Y-256.887
G1 X130.557 Y-256.472
G1 X130.462 Y-256.265
G1 X130.341 Y-256.058
G1 X130.046 Y-255.644
G1 X129.659 Y-255.23
G1 X129.633 Y-255.206
G1 X129.219 Y-254.87
G1 X129.137 Y-254.815
G1 X128.805 Y-254.625
G1 X128.391 Y-254.43
G1 X128.308 Y-254.401
G1 X127.977 Y-254.298
G1 X127.562 Y-254.21
G1 X127.148 Y-254.166
G1 X126.734 Y-254.168
G1 X126.32 Y-254.216
G1 X125.906 Y-254.308
G1 X125.608 Y-254.401
G1 X125.492 Y-254.442
G1 X125.077 Y-254.644
G1 X124.779 Y-254.815
G1 X124.663 Y-254.893
G1 X124.256 Y-255.23
G1 X124.249 Y-255.236
G1 X123.869 Y-255.644
G1 X123.835 Y-255.687
G1 X123.636 Y-255.976
G1 Z26 F100
G1 X57.062 Y-272.497
G1 Z17.27
G1 Z16.635 F1000
G1 X57.056 Y-272.493 Z16.536
G1 X57.036 Y-272.48 Z16.439
G1 X57.004 Y-272.459 Z16.347
G1 X56.961 Y-272.431 Z16.262
G1 X56.907 Y-272.395 Z16.186
G1 X56.843 Y-272.354 Z16.121
G1 X56.772 Y-272.307 Z16.069
G1 X56.695 Y-272.257 Z16.031
G1 X56.614 Y-272.203 Z16.008
G1 X56.531 Y-272.149 Z16
G3 X55.788 Y-271.895 I-0.868 J-1.323
G1 X55.085 Y-271.863 F600
G1 X54.257 Y-271.824
G1 X54.029 Y-271.812
G1 X53.792
G1 X53.63 Y-271.825
G1 X53.455 Y-271.853
G1 X53.265 Y-271.9
G1 X53.071 Y-271.964
G1 X52.862 Y-272.052
G1 X52.649 Y-272.163
G1 X52.435 Y-272.298
G1 X52.214 Y-272.464
G1 X51.996 Y-272.655
G1 X51.786 Y-272.872
G1 X51.58 Y-273.123
G1 X51.383 Y-273.406
G1 X51.205 Y-273.712
G1 X51.046 Y-274.044
G1 X50.907 Y-274.406
G1 X50.792 Y-274.796
G1 X50.706 Y-275.207
G1 X50.652 Y-275.634
G1 X50.632 Y-276.074
G1 X50.648 Y-276.526
G1 X50.701 Y-276.987
G1 X50.794 Y-277.453
G1 X50.926 Y-277.92
G1 X51.098 Y-278.383
G1 X51.31 Y-278.837
G1 X51.366 Y-278.935
G1 X51.537 Y-279.176
G1 X51.751 Y-279.377
G1 X52.001 Y-279.533
G1 X52.276 Y-279.636
G1 X52.567 Y-279.682
G1 X53.014 Y-279.707
G1 X53.843 Y-279.75
G1 X54.671 Y-279.79
G1 X55.316 Y-279.819
G3 X55.945 Y-279.06 I0.006 J0.635 F1000
G1 X54.597 Y-272.32
G3 X54.029 Y-271.812 I-0.623 J-0.125
G1 X53.428 Y-271.781 F600
G1 X53.014 Y-271.757
G1 X52.27 Y-271.712
G1 X52.12 Y-271.71
G1 X51.956 Y-271.723
G1 X51.779 Y-271.751
G1 X51.585 Y-271.798
G1 X51.386 Y-271.863
G1 X51.168 Y-271.955
G1 X50.951 Y-272.068
G1 X50.722 Y-272.211
G1 X50.488 Y-272.385
G1 X50.259 Y-272.585
G1 X50.026 Y-272.826
G1 X49.799 Y-273.1
G1 X49.588 Y-273.402
G1 X49.386 Y-273.748
G1 X49.2 Y-274.133
G1 X49.041 Y-274.543
G1 X48.91 Y-274.985
G1 X48.809 Y-275.464
G1 X48.743 Y-275.976
G1 X48.717 Y-276.513
G1 X48.735 Y-277.062
G1 X48.795 Y-277.587
G1 X48.888 Y-278.065
G1 X49 Y-278.465
G1 X49.039 Y-278.569
G1 X49.161 Y-278.822
G1 X49.329 Y-279.048
G1 X49.536 Y-279.238
G1 X49.776 Y-279.385
G1 X50.039 Y-279.485
G1 X50.316 Y-279.532
G1 X50.529 Y-279.549
G1 X50.944 Y-279.578
G1 X51.358 Y-279.607
G1 X51.772 Y-279.634
G1 X52.567 Y-279.682
G3 X53.216 Y-279.012 I0.015 J0.635 F1000
G1 X52.842 Y-272.309
G3 X52.27 Y-271.712 I-0.634 J-0.035
G1 X51.772 Y-271.679 F600
G1 X51.358 Y-271.65
G1 X50.716 Y-271.602
G1 X50.613 Y-271.594
G1 X50.456 Y-271.59
G1 X50.292 Y-271.599
G1 X50.105 Y-271.624
G1 X49.914 Y-271.666
G1 X49.698 Y-271.731
G1 X49.481 Y-271.817
G1 X49.243 Y-271.933
G1 X49.003 Y-272.076
G1 X48.756 Y-272.25
G1 X48.5 Y-272.465
G1 X48.254 Y-272.706
G1 X48.004 Y-272.994
G1 X47.76 Y-273.326
G1 X47.537 Y-273.688
G1 X47.324 Y-274.104
G1 X47.131 Y-274.57
G1 X46.972 Y-275.062
G1 X46.848 Y-275.588
G1 X46.764 Y-276.143
G1 X46.724 Y-276.697
G1 X46.729 Y-277.189
G1 X46.767 Y-277.616
G1 X46.838 Y-278.027
G1 X46.893 Y-278.243
G1 X46.997 Y-278.526
G1 X47.156 Y-278.783
G1 X47.365 Y-279.002
G1 X47.613 Y-279.174
G1 X47.891 Y-279.292
G1 X48.187 Y-279.351
G1 X48.459 Y-279.377
G1 X48.873 Y-279.415
G1 X49.701 Y-279.487
G1 X50.316 Y-279.532
G3 X50.977 Y-278.917 I0.026 J0.634 F1000
G1 X51.177 Y-272.245
G3 X50.613 Y-271.594 I-0.635 J0.019
G1 X50.115 Y-271.556 F600
G1 X49.701 Y-271.52
G1 X49.287 Y-271.482
G1 X48.873 Y-271.443
G1 X48.723 Y-271.436
G1 X48.551 Y-271.443
G1 X48.356 Y-271.467
G1 X48.153 Y-271.509
G1 X47.926 Y-271.576
G1 X47.697 Y-271.663
G1 X47.442 Y-271.784
G1 X47.191 Y-271.93
G1 X46.919 Y-272.118
G1 X46.649 Y-272.339
G1 X46.378 Y-272.6
G1 X46.1 Y-272.913
G1 X45.842 Y-273.258
G1 X45.591 Y-273.655
G1 X45.353 Y-274.107
G1 X45.146 Y-274.593
G1 X44.975 Y-275.105
G1 X44.844 Y-275.636
G1 X44.757 Y-276.167
G1 X44.716 Y-276.664
G1 Y-277.096
G1 X44.749 Y-277.515
G1 X44.807 Y-277.875
G1 X44.84 Y-278.009
G1 X44.94 Y-278.291
G1 X45.095 Y-278.547
G1 X45.298 Y-278.767
G1 X45.541 Y-278.942
G1 X45.814 Y-279.064
G1 X46.107 Y-279.129
G1 X46.388 Y-279.162
G1 X46.802 Y-279.208
G1 X47.266 Y-279.258
G1 X47.63 Y-279.296
G1 X48.187 Y-279.351
G3 X48.858 Y-278.771 I0.039 J0.634 F1000
G1 X49.421 Y-272.126
G3 X48.873 Y-271.443 I-0.633 J0.054
G1 X48.313 Y-271.387 F600
G1 X48.044 Y-271.359
G1 X47.63 Y-271.314
G1 X47.216 Y-271.267
G1 X46.982 Y-271.251
G1 X46.799 Y-271.253
G1 X46.609 Y-271.27
G1 X46.391 Y-271.308
G1 X46.169 Y-271.365
G1 X45.918 Y-271.451
G1 X45.666 Y-271.561
G1 X45.391 Y-271.709
G1 X45.112 Y-271.889
G1 X44.826 Y-272.108
G1 X44.528 Y-272.376
G1 X44.246 Y-272.675
G1 X43.962 Y-273.029
G1 X43.687 Y-273.435
G1 X43.438 Y-273.874
G1 X43.218 Y-274.348
G1 X43.031 Y-274.85
G1 X42.884 Y-275.374
G1 X42.781 Y-275.896
G1 X42.727 Y-276.371
G1 X42.712 Y-276.797
G1 X42.731 Y-277.205
G1 X42.777 Y-277.564
G1 X42.805 Y-277.694
G1 X42.896 Y-277.981
G1 X43.044 Y-278.243
G1 X43.241 Y-278.47
G1 X43.481 Y-278.652
G1 X43.752 Y-278.783
G1 X44.044 Y-278.855
G1 X44.317 Y-278.895
G1 X44.731 Y-278.952
G1 X45.145 Y-279.007
G1 X45.56 Y-279.061
G1 X45.974 Y-279.113
G1 X46.107 Y-279.129
G3 X46.787 Y-278.587 I0.052 J0.633 F1000
G1 X47.747 Y-271.986
G3 X47.216 Y-271.267 I-0.628 J0.091
G1 X46.802 Y-271.217 F600
G1 X45.974 Y-271.11
G1 X45.56 Y-271.054
G1 X45.332 Y-271.021
G1 X45.182 Y-271.008
G1 X44.993 Y-271.006
G1 X44.798 Y-271.02
G1 X44.572 Y-271.055
G1 X44.341 Y-271.11
G1 X44.08 Y-271.195
G1 X43.818 Y-271.304
G1 X43.532 Y-271.451
G1 X43.24 Y-271.631
G1 X42.944 Y-271.85
G1 X42.634 Y-272.119
G1 X42.338 Y-272.421
G1 X42.044 Y-272.774
G1 X41.757 Y-273.18
G1 X41.494 Y-273.624
G1 X41.264 Y-274.097
G1 X41.068 Y-274.595
G1 X40.913 Y-275.112
G1 X40.805 Y-275.61
G1 X40.742 Y-276.081
G1 X40.721 Y-276.49
G1 X40.732 Y-276.896
G1 X40.771 Y-277.247
G1 X40.79 Y-277.349
G1 X40.875 Y-277.635
G1 X41.016 Y-277.898
G1 X41.207 Y-278.127
G1 X41.439 Y-278.314
G1 X41.705 Y-278.45
G1 X41.992 Y-278.531
G1 X42.246 Y-278.575
G1 X42.66 Y-278.645
G1 X43.075 Y-278.711
G1 X43.489 Y-278.774
G1 X44.044 Y-278.855
G3 X44.738 Y-278.33 I0.068 J0.631 F1000
G1 X45.847 Y-271.752
G3 X45.332 Y-271.021 I-0.626 J0.106
G1 X44.993 Y-270.973 F600
G1 X44.731 Y-270.934
G1 X44.317 Y-270.871
G1 X43.903 Y-270.805
G1 X43.489 Y-270.734
G1 X43.34 Y-270.716
G1 X43.145 Y-270.712
G1 X42.944 Y-270.725
G1 X42.711 Y-270.758
G1 X42.473 Y-270.812
G1 X42.204 Y-270.896
G1 X41.934 Y-271.005
G1 X41.637 Y-271.154
G1 X41.338 Y-271.335
G1 X41.03 Y-271.556
G1 X40.71 Y-271.829
G1 X40.405 Y-272.134
G1 X40.101 Y-272.49
G1 X39.808 Y-272.897
G1 X39.537 Y-273.343
G1 X39.3 Y-273.817
G1 X39.1 Y-274.313
G1 X38.939 Y-274.826
G1 X38.83 Y-275.305
G1 X38.763 Y-275.768
G1 X38.739 Y-276.166
G1 X38.746 Y-276.565
G1 X38.78 Y-276.913
G1 X38.789 Y-276.962
G1 X38.869 Y-277.245
G1 X39.004 Y-277.507
G1 X39.188 Y-277.736
G1 X39.414 Y-277.925
G1 X39.672 Y-278.065
G1 X39.953 Y-278.152
G1 X40.175 Y-278.197
G1 X41.004 Y-278.353
G1 X41.423 Y-278.43
G1 X41.959 Y-278.525
G1 X41.992 Y-278.531
G3 X42.702 Y-278.023 I0.087 J0.629 F1000
G1 X43.981 Y-271.478
G3 X43.489 Y-270.734 I-0.623 J0.122
G1 X43.075 Y-270.662 F600
G1 X42.503 Y-270.558
G1 X42.246 Y-270.51
G1 X41.832 Y-270.425
G1 X41.685 Y-270.395
G1 X41.514 Y-270.374
G1 X41.322 Y-270.367
G1 X41.112 Y-270.375
G1 X40.881 Y-270.404
G1 X40.634 Y-270.454
G1 X40.364 Y-270.532
G1 X40.086 Y-270.638
G1 X39.781 Y-270.783
G1 X39.48 Y-270.956
G1 X39.158 Y-271.178
G1 X38.835 Y-271.442
G1 X38.521 Y-271.744
G1 X38.203 Y-272.101
G1 X37.899 Y-272.504
G1 X37.622 Y-272.942
G1 X37.375 Y-273.41
G1 X37.165 Y-273.902
G1 X36.993 Y-274.412
G1 X36.875 Y-274.889
G1 X36.8 Y-275.343
G1 X36.767 Y-275.737
G1 X36.766 Y-276.133
G1 Y-276.141
G1 X36.814 Y-276.415
G1 X36.911 Y-276.675
G1 X37.056 Y-276.913
G1 X37.243 Y-277.119
G1 X37.276 Y-277.15
G1 X37.324 Y-277.187
G1 X37.691 Y-277.439
G1 X37.976 Y-277.601
G1 X38.105 Y-277.658
G1 X38.519 Y-277.823
G1 X38.933 Y-277.94
G1 X39.285 Y-278.016
G1 X39.953 Y-278.152
G3 X40.677 Y-277.663 I0.104 J0.626 F1000
G1 X42.134 Y-271.113
G3 X41.832 Y-270.425 I-0.62 J0.138
G1 X41.418 Y-270.204 F600
G1 X41.171 Y-269.992
G1 X41.053 Y-269.9
G1 X40.923 Y-269.825
G1 X40.787 Y-269.762
G1 X40.63 Y-269.704
G1 X40.462 Y-269.658
G1 X40.263 Y-269.619
G1 X40.055 Y-269.596
G1 X39.815 Y-269.589
G1 X39.565 Y-269.602
G1 X39.289 Y-269.639
G1 X38.994 Y-269.702
G1 X38.687 Y-269.794
G1 X38.352 Y-269.926
G1 X38.018 Y-270.088
G1 X37.667 Y-270.295
G1 X37.303 Y-270.551
G1 X36.952 Y-270.843
G1 X36.601 Y-271.187
G1 X36.255 Y-271.584
G1 X35.929 Y-272.026
G1 X35.634 Y-272.501
G1 X35.377 Y-273.001
G1 X35.16 Y-273.519
G1 X35.009 Y-273.985
G1 X34.986 Y-274.083
G1 X34.945 Y-274.404
G1 X34.976 Y-274.727
G1 X35.076 Y-275.035
G1 X35.24 Y-275.314
G1 X35.462 Y-275.551
G1 X36.448 Y-276.398
G1 X36.865 Y-276.773
G1 X37.243 Y-277.119
G3 X38.223 Y-276.92 I0.412 J0.483 F1000
G1 X41.309 Y-270.742
G3 X41.171 Y-269.992 I-0.568 J0.284
G1 X40.59 Y-269.492 F600
G1 X40.382 Y-269.315
G1 X40.089 Y-269.069
G1 X39.969 Y-268.978
G1 X39.842 Y-268.898
G1 X39.687 Y-268.818
G1 X39.519 Y-268.747
G1 X39.322 Y-268.681
G1 X39.11 Y-268.63
G1 X38.869 Y-268.591
G1 X38.608 Y-268.571
G1 X38.326
G1 X38.012 Y-268.597
G1 X37.693 Y-268.649
G1 X37.34 Y-268.736
G1 X36.973 Y-268.859
G1 X36.598 Y-269.02
G1 X36.196 Y-269.231
G1 X35.792 Y-269.486
G1 X35.394 Y-269.785
G1 X34.991 Y-270.142
G1 X34.594 Y-270.555
G1 X34.222 Y-271.01
G1 X33.928 Y-271.435
G1 X33.681 Y-271.862
G1 X33.505 Y-272.231
G1 X33.359 Y-272.616
G1 X33.353 Y-272.633
G1 X33.3 Y-272.913
G1 X33.302 Y-273.198
G1 X33.358 Y-273.478
G1 X33.467 Y-273.741
G1 X33.624 Y-273.979
G1 X33.823 Y-274.183
G1 X33.963 Y-274.3
G1 X34.948 Y-275.116
G1 X35.206 Y-275.333
G1 X35.462 Y-275.551
G3 X36.381 Y-275.416 I0.397 J0.496 F1000
G1 X40.187 Y-269.902
G3 X40.089 Y-269.069 I-0.523 J0.361
G1 X39.888 Y-268.901 F600
G1 X39.347 Y-268.453
G1 X38.889 Y-268.073
G1 X38.777 Y-267.978
G1 X38.658 Y-267.887
G1 X38.512 Y-267.798
G1 X38.342 Y-267.712
G1 X38.149 Y-267.634
G1 X37.934 Y-267.566
G1 X37.688 Y-267.509
G1 X37.426 Y-267.471
G1 X37.125 Y-267.451
G1 X36.814 Y-267.456
G1 X36.465 Y-267.489
G1 X36.1 Y-267.553
G1 X35.714 Y-267.654
G1 X35.293 Y-267.801
G1 X34.874 Y-267.987
G1 X34.436 Y-268.225
G1 X33.991 Y-268.514
G1 X33.554 Y-268.851
G1 X33.143 Y-269.225
G1 X32.762 Y-269.632
G1 X32.459 Y-270.012
G1 X32.204 Y-270.391
G1 X32.006 Y-270.745
G1 X31.848 Y-271.087
G1 X31.808 Y-271.198
G1 X31.734 Y-271.487
G1 X31.72 Y-271.784
G1 X31.765 Y-272.079
G1 X31.868 Y-272.358
G1 X32.025 Y-272.612
G1 X32.23 Y-272.828
G1 X32.721 Y-273.25
G1 X33.135 Y-273.602
G1 X33.7 Y-274.079
G1 X33.823 Y-274.183
G3 X34.712 Y-274.076 I0.391 J0.5 F1000
G1 X38.85 Y-268.843
G3 X38.777 Y-267.978 I-0.498 J0.394
G1 X38.398 Y-267.658 F600
G1 X37.91 Y-267.244
G1 X37.428 Y-266.83
G1 X37.31 Y-266.737
G1 X37.153 Y-266.64
G1 X36.976 Y-266.549
G1 X36.769 Y-266.463
G1 X36.54 Y-266.389
G1 X36.282 Y-266.328
G1 X35.995 Y-266.283
G1 X35.686 Y-266.261
G1 X35.336 Y-266.264
G1 X34.978 Y-266.295
G1 X34.576 Y-266.364
G1 X34.158 Y-266.47
G1 X33.728 Y-266.617
G1 X33.271 Y-266.815
G1 X32.81 Y-267.061
G1 X32.36 Y-267.35
G1 X31.928 Y-267.678
G1 X31.523 Y-268.042
G1 X31.176 Y-268.407
G1 X30.876 Y-268.778
G1 X30.648 Y-269.113
G1 X30.448 Y-269.464
G1 X30.298 Y-269.783
G1 X30.261 Y-269.882
G1 X30.184 Y-270.178
G1 X30.169 Y-270.484
G1 X30.218 Y-270.786
G1 X30.328 Y-271.072
G1 X30.494 Y-271.329
G1 X30.71 Y-271.547
G1 X31.064 Y-271.837
G1 X31.513 Y-272.215
G1 X31.892 Y-272.537
G1 X32.23 Y-272.828
G3 X33.108 Y-272.75 I0.398 J0.495 F1000
G1 X37.476 Y-267.711
G3 X37.428 Y-266.83 I-0.48 J0.416
G1 X37.276 Y-266.698 F600
G1 X36.862 Y-266.344
G1 X36.448 Y-265.992
G1 X36.034 Y-265.646
G1 X35.864 Y-265.522
G1 X35.696 Y-265.418
G1 X35.514 Y-265.325
G1 X35.295 Y-265.235
G1 X35.06 Y-265.159
G1 X34.784 Y-265.094
G1 X34.49 Y-265.05
G1 X34.159 Y-265.026
G1 X33.799 Y-265.03
G1 X33.421 Y-265.064
G1 X33.002 Y-265.137
G1 X32.573 Y-265.247
G1 X32.128 Y-265.4
G1 X31.667 Y-265.601
G1 X31.204 Y-265.849
G1 X30.756 Y-266.138
G1 X30.329 Y-266.465
G1 X29.931 Y-266.823
G1 X29.602 Y-267.172
G1 X29.311 Y-267.533
G1 X29.09 Y-267.859
G1 X28.895 Y-268.202
G1 X28.749 Y-268.516
G1 X28.713 Y-268.613
G1 X28.637 Y-268.907
G1 X28.622 Y-269.21
G1 X28.67 Y-269.51
G1 X28.778 Y-269.793
G1 X28.941 Y-270.049
G1 X29.153 Y-270.267
G1 X29.503 Y-270.558
G1 X29.822 Y-270.822
G1 X30.71 Y-271.547
G3 X31.563 Y-271.471 I0.385 J0.505 F1000
G1 X36.078 Y-266.548
G3 X36.034 Y-265.646 I-0.468 J0.429
G1 X34.946 Y-264.758 F600
G1 X34.515 Y-264.402
G1 X34.365 Y-264.291
G1 X34.198 Y-264.186
G1 X34.015 Y-264.09
G1 X33.795 Y-263.997
G1 X33.559 Y-263.919
G1 X33.28 Y-263.851
G1 X32.988 Y-263.804
G1 X32.649 Y-263.777
G1 X32.296 Y-263.778
G1 X31.909 Y-263.81
G1 X31.488 Y-263.879
G1 X31.063 Y-263.984
G1 X30.611 Y-264.135
G1 X30.148 Y-264.333
G1 X29.686 Y-264.576
G1 X29.24 Y-264.858
G1 X28.814 Y-265.178
G1 X28.417 Y-265.53
G1 X28.083 Y-265.877
G1 X27.789 Y-266.236
G1 X27.565 Y-266.56
G1 X27.366 Y-266.903
G1 X27.218 Y-267.216
G1 X27.172 Y-267.336
G1 X27.092 Y-267.638
G1 X27.077 Y-267.95
G1 X27.128 Y-268.259
G1 X27.243 Y-268.549
G1 X27.416 Y-268.81
G1 X27.64 Y-269.028
G1 X27.751 Y-269.115
G1 X28.002 Y-269.315
G1 X28.165 Y-269.447
G1 X28.579 Y-269.788
G1 X29.153 Y-270.267
G3 X30.007 Y-270.198 I0.39 J0.501 F1000
G1 X34.558 Y-265.31
G3 X34.515 Y-264.402 I-0.465 J0.433
G1 X33.45 Y-263.515 F600
G1 X33.135 Y-263.258
G1 X32.941 Y-263.101
G1 X32.812 Y-263.009
G1 X32.637 Y-262.903
G1 X32.447 Y-262.808
G1 X32.218 Y-262.716
G1 X31.973 Y-262.64
G1 X31.686 Y-262.576
G1 X31.381 Y-262.532
G1 X31.04 Y-262.511
G1 X30.666 Y-262.519
G1 X30.279 Y-262.558
G1 X29.853 Y-262.635
G1 X29.408 Y-262.754
G1 X28.961 Y-262.913
G1 X28.502 Y-263.118
G1 X28.043 Y-263.37
G1 X27.601 Y-263.661
G1 X27.179 Y-263.99
G1 X26.789 Y-264.348
G1 X26.468 Y-264.693
G1 X26.188 Y-265.049
G1 X25.971 Y-265.375
G1 X25.784 Y-265.712
G1 X25.642 Y-266.026
G1 X25.6 Y-266.142
G1 X25.526 Y-266.438
G1 X25.515 Y-266.743
G1 X25.567 Y-267.043
G1 X25.678 Y-267.327
G1 X25.846 Y-267.582
G1 X26.062 Y-267.797
G1 X26.407 Y-268.073
G1 X26.508 Y-268.153
G1 X26.94 Y-268.487
G1 X27.337 Y-268.791
G1 X27.479 Y-268.901
G1 X27.64 Y-269.028
G3 X28.484 Y-268.944 I0.375 J0.512 F1000
G1 X32.994 Y-264.01
G3 X32.941 Y-263.101 I-0.469 J0.428
G1 X32.721 Y-262.926 F600
G1 X32.418 Y-262.687
G1 X31.88 Y-262.273
G1 X31.478 Y-261.964
G1 X31.344 Y-261.858
G1 X31.216 Y-261.766
G1 X31.046 Y-261.662
G1 X30.858 Y-261.568
G1 X30.634 Y-261.477
G1 X30.393 Y-261.401
G1 X30.11 Y-261.336
G1 X29.814 Y-261.292
G1 X29.47 Y-261.27
G1 X29.114 Y-261.276
G1 X28.724 Y-261.313
G1 X28.3 Y-261.389
G1 X27.873 Y-261.501
G1 X27.423 Y-261.659
G1 X26.963 Y-261.863
G1 X26.504 Y-262.112
G1 X26.063 Y-262.4
G1 X25.644 Y-262.724
G1 X25.255 Y-263.078
G1 X24.928 Y-263.428
G1 X24.64 Y-263.791
G1 X24.421 Y-264.117
G1 X24.228 Y-264.462
G1 X24.083 Y-264.776
G1 X24.064 Y-264.829
G1 X23.991 Y-265.115
G1 X23.976 Y-265.411
G1 X24.02 Y-265.703
G1 X24.122 Y-265.981
G1 X24.276 Y-266.233
G1 X24.478 Y-266.45
G1 X24.91 Y-266.83
G1 X25.266 Y-267.138
G1 X25.389 Y-267.244
G1 X25.68 Y-267.486
G1 X26.027 Y-267.769
G1 X26.062 Y-267.797
G3 X26.914 Y-267.716 I0.382 J0.507 F1000
G1 X31.4 Y-262.765
G3 X31.344 Y-261.858 I-0.471 J0.426
G1 X31.064 Y-261.633 F600
G1 X30.831 Y-261.444
G1 X30.65 Y-261.294
G1 X30.338 Y-261.03
G1 X29.939 Y-260.681
G1 X29.785 Y-260.559
G1 X29.633 Y-260.458
G1 X29.447 Y-260.354
G1 X29.245 Y-260.262
G1 X29.005 Y-260.175
G1 X28.747 Y-260.104
G1 X28.45 Y-260.048
G1 X28.128 Y-260.014
G1 X27.78 Y-260.004
G1 X27.391 Y-260.025
G1 X26.995 Y-260.079
G1 X26.566 Y-260.172
G1 X26.111 Y-260.311
G1 X25.655 Y-260.49
G1 X25.201 Y-260.712
G1 X24.748 Y-260.982
G1 X24.314 Y-261.289
G1 X23.903 Y-261.633
G1 X23.535 Y-261.995
G1 X23.234 Y-262.342
G1 X22.992 Y-262.671
G1 X22.783 Y-263.01
G1 X22.623 Y-263.324
G1 X22.562 Y-263.471
G1 X22.474 Y-263.772
G1 X22.45 Y-264.084
G1 X22.493 Y-264.394
G1 X22.6 Y-264.689
G1 X22.767 Y-264.954
G1 X22.985 Y-265.178
G1 X23.477 Y-265.587
G1 X23.609 Y-265.698
G1 X23.965 Y-266.001
G1 X24.478 Y-266.45
G3 X25.338 Y-266.398 I0.402 J0.491 F1000
G1 X29.962 Y-261.584
G3 X29.939 Y-260.681 I-0.458 J0.44
G1 X29.391 Y-260.201 F600
G1 X28.993 Y-259.855
G1 X28.579 Y-259.506
G1 X28.419 Y-259.373
G1 X28.256 Y-259.251
G1 X28.088 Y-259.145
G1 X27.898 Y-259.045
G1 X27.676 Y-258.951
G1 X27.43 Y-258.869
G1 X27.153 Y-258.801
G1 X26.843 Y-258.75
G1 X26.514 Y-258.724
G1 X26.139 Y-258.723
G1 X25.755 Y-258.754
G1 X25.338 Y-258.822
G1 X24.889 Y-258.932
G1 X24.439 Y-259.082
G1 X23.978 Y-259.277
G1 X23.516 Y-259.519
G1 X23.067 Y-259.802
G1 X22.638 Y-260.123
G1 X22.24 Y-260.474
G1 X21.909 Y-260.817
G1 X21.621 Y-261.167
G1 X21.396 Y-261.493
G1 X21.202 Y-261.825
G1 X21.179 Y-261.875
G1 X21.082 Y-262.138
G1 X21.037 Y-262.415
G1 X21.045 Y-262.696
G1 X21.105 Y-262.97
G1 X21.217 Y-263.227
G1 X21.375 Y-263.515
G1 X21.538 Y-263.774
G1 X21.657 Y-263.93
G1 X21.953 Y-264.276
G1 X22.018 Y-264.344
G1 X22.367 Y-264.665
G1 X22.478 Y-264.758
G1 X22.985 Y-265.178
G3 X23.832 Y-265.115 I0.388 J0.503 F1000
G1 X28.455 Y-260.285
G3 X28.419 Y-259.373 I-0.459 J0.439
G1 X28.165 Y-259.162 F600
G1 X28.066 Y-258.958
G1 X27.984 Y-258.73
G1 X27.926 Y-258.592
G1 X27.852 Y-258.462
G1 X27.766 Y-258.339
G1 X27.662 Y-258.215
G1 X27.542 Y-258.093
G1 X27.394 Y-257.966
G1 X27.227 Y-257.844
G1 X27.03 Y-257.723
G1 X26.806 Y-257.609
G1 X26.554 Y-257.506
G1 X26.266 Y-257.414
G1 X25.96 Y-257.342
G1 X25.608 Y-257.289
G1 X25.239 Y-257.264
G1 X24.837 Y-257.269
G1 X24.396 Y-257.31
G1 X23.946 Y-257.388
G1 X23.476 Y-257.509
G1 X22.982 Y-257.68
G1 X22.486 Y-257.898
G1 X21.998 Y-258.161
G1 X21.531 Y-258.462
G1 X21.091 Y-258.8
G1 X20.729 Y-259.128
G1 X20.6 Y-259.264
G1 X20.405 Y-259.523
G1 X20.271 Y-259.817
G1 X20.204 Y-260.134
G1 X20.207 Y-260.457
G1 X20.281 Y-260.772
G1 X20.524 Y-261.444
G1 X20.827 Y-262.273
G1 X20.979 Y-262.687
G1 X21.124 Y-263.048
G1 X21.147 Y-263.101
G1 X21.217 Y-263.227
G3 X22.129 Y-263.421 I0.546 J0.325 F1000
G1 X27.746 Y-259.443
G3 X27.984 Y-258.73 I-0.367 J0.518
G1 X27.751 Y-258.082 F600
G1 X27.622 Y-257.715
G1 X27.542 Y-257.487
G1 X27.469 Y-257.306
G1 X27.401 Y-257.172
G1 X27.314 Y-257.028
G1 X27.21 Y-256.886
G1 X27.078 Y-256.732
G1 X26.929 Y-256.584
G1 X26.746 Y-256.43
G1 X26.543 Y-256.284
G1 X26.304 Y-256.141
G1 X26.033 Y-256.007
G1 X25.739 Y-255.889
G1 X25.398 Y-255.784
G1 X25.038 Y-255.704
G1 X24.638 Y-255.648
G1 X24.195 Y-255.622
G1 X23.739 Y-255.632
G1 X23.25 Y-255.682
G1 X22.727 Y-255.779
G1 X22.187 Y-255.924
G1 X21.648 Y-256.117
G1 X21.144 Y-256.345
G1 X20.699 Y-256.59
G1 X20.337 Y-256.829
G1 X20.004 Y-257.09
G1 X19.965 Y-257.126
G1 X19.776 Y-257.337
G1 X19.631 Y-257.58
G1 X19.535 Y-257.846
G1 X19.491 Y-258.126
G1 X19.501 Y-258.409
G1 X19.564 Y-258.685
G1 X19.795 Y-259.373
G1 X19.882 Y-259.627
G1 X20.082 Y-260.201
G1 X20.256 Y-260.702
G1 X20.281 Y-260.772
G3 X21.144 Y-261.115 I0.591 J0.232 F1000
G1 X27.207 Y-258.249
G3 X27.542 Y-257.487 I-0.271 J0.574
G1 X27.335 Y-256.887 F600
G1 X27.194 Y-256.472
G1 X27.055 Y-256.058
G1 X27.015 Y-255.936
G1 X26.957 Y-255.786
G1 X26.888 Y-255.643
G1 X26.796 Y-255.484
G1 X26.685 Y-255.325
G1 X26.546 Y-255.156
G1 X26.383 Y-254.988
G1 X26.189 Y-254.818
G1 X25.964 Y-254.649
G1 X25.711 Y-254.491
G1 X25.413 Y-254.336
G1 X25.095 Y-254.201
G1 X24.726 Y-254.079
G1 X24.321 Y-253.981
G1 X23.889 Y-253.912
G1 X23.406 Y-253.874
G1 X22.891 Y-253.875
G1 X22.364 Y-253.918
G1 X21.82 Y-254.007
G1 X21.277 Y-254.142
G1 X20.76 Y-254.315
G1 X20.317 Y-254.504
G1 X19.949 Y-254.698
G1 X19.603 Y-254.917
G1 X19.454 Y-255.029
G1 X19.224 Y-255.244
G1 X19.044 Y-255.503
G1 X18.923 Y-255.794
G1 X18.867 Y-256.104
G1 X18.877 Y-256.418
G1 X18.884 Y-256.472
G1 X18.987 Y-256.887
G1 X19.054 Y-257.111
G1 X19.379 Y-258.13
G1 X19.468 Y-258.397
G1 X19.564 Y-258.685
G3 X20.383 Y-259.057 I0.595 J0.222 F1000
G1 X26.629 Y-256.708
G3 X27.015 Y-255.936 I-0.224 J0.594
G1 X26.919 Y-255.644 F600
G1 X26.785 Y-255.23
G1 X26.653 Y-254.815
G1 X26.508 Y-254.386
G1 X26.413 Y-254.167
G1 X26.297 Y-253.932
G1 X26.194 Y-253.76
G1 X26.073 Y-253.59
G1 X25.918 Y-253.407
G1 X25.741 Y-253.228
G1 X25.526 Y-253.043
G1 X25.28 Y-252.865
G1 X24.998 Y-252.692
G1 X24.671 Y-252.526
G1 X24.32 Y-252.383
G1 X23.914 Y-252.254
G1 X23.472 Y-252.151
G1 X23.005 Y-252.082
G1 X22.494 Y-252.048
G1 X21.959 Y-252.055
G1 X21.419 Y-252.106
G1 X21.29 Y-252.128
G1 X21.144 Y-252.162
G1 X21.002 Y-252.209
G1 X20.866 Y-252.271
G3 X20.973 Y-253.426 I0.311 J-0.554 F1000
G1 X25.618 Y-255
G3 X26.413 Y-254.167 I0.204 J0.601
G1 X26.335 Y-253.987 F600
G1 X26.101 Y-253.572
G1 X26.094 Y-253.562
G1 X25.785 Y-253.158
G1 X25.68 Y-253.04
G1 X25.374 Y-252.744
G1 X25.266 Y-252.654
G1 X24.852 Y-252.355
G1 X24.808 Y-252.33
G1 X24.438 Y-252.138
G1 X24.023 Y-251.968
G1 X23.844 Y-251.915
G1 X23.609 Y-251.859
G1 X23.195 Y-251.791
G1 X22.781 Y-251.768
G1 X22.367 Y-251.791
G1 X21.953 Y-251.859
G1 X21.718 Y-251.915
G1 X21.538 Y-251.968
G1 X21.124 Y-252.138
G1 X20.753 Y-252.33
G1 X20.71 Y-252.355
G1 X20.296 Y-252.654
G1 X20.187 Y-252.744
G1 X19.882 Y-253.04
G1 X19.777 Y-253.158
G1 X19.468 Y-253.562
G1 X19.461 Y-253.572
G1 X19.227 Y-253.987
G1 X19.054 Y-254.39
G1 X18.925 Y-254.815
G1 X18.847 Y-255.23
G1 X18.813 Y-255.644
G1 X18.826 Y-256.058
G1 X18.877 Y-256.418
G3 X19.401 Y-256.936 I0.625 J0.11 F1000
G1 X19.499 Y-256.951 Z16.008
G1 X19.595 Y-256.967 Z16.031
G1 X19.685 Y-256.982 Z16.069
G1 X19.769 Y-256.995 Z16.121
G1 X19.844 Y-257.007 Z16.186
G1 X19.908 Y-257.018 Z16.262
G1 X19.959 Y-257.026 Z16.347
G1 X19.997 Y-257.032 Z16.439
G1 X20.02 Y-257.036 Z16.536
G1 X20.028 Y-257.037 Z16.635
G1 Z26 F100
G1 X21.699 Y-216.42
G1 Z23.5
G3 X24.691 Y-211.182 Z23.169 I1.496 J2.619 F333.33
G3 X21.699 Y-216.42 Z22.838 I-1.496 J-2.619
G3 X24.691 Y-211.182 Z22.507 I1.496 J2.619
G3 X21.699 Y-216.42 Z22.176 I-1.496 J-2.619
G3 X24.691 Y-211.182 Z21.845 I1.496 J2.619
G3 X21.699 Y-216.42 Z21.515 I-1.496 J-2.619
G3 X24.691 Y-211.182 Z21.184 I1.496 J2.619
G3 X21.699 Y-216.42 Z20.853 I-1.496 J-2.619
G3 X24.691 Y-211.182 Z20.522 I1.496 J2.619
G3 X21.699 Y-216.42 Z20.191 I-1.496 J-2.619
G3 X24.691 Y-211.182 Z19.86 I1.496 J2.619
G3 X21.699 Y-216.42 Z19.529 I-1.496 J-2.619
G3 X24.691 Y-211.182 Z19.198 I1.496 J2.619
G3 X21.699 Y-216.42 Z18.867 I-1.496 J-2.619
G3 X24.691 Y-211.182 Z18.536 I1.496 J2.619
G3 X21.699 Y-216.42 Z18.206 I-1.496 J-2.619
G3 X24.691 Y-211.182 Z17.875 I1.496 J2.619
G3 X21.699 Y-216.42 Z17.544 I-1.496 J-2.619
G3 X24.691 Y-211.182 Z17.213 I1.496 J2.619
G3 X21.699 Y-216.42 Z16.882 I-1.496 J-2.619
G3 X24.691 Y-211.182 Z16.551 I1.496 J2.619
G3 X21.699 Y-216.42 Z16.22 I-1.496 J-2.619
G3 X26.211 Y-213.801 Z16 I1.496 J2.619
G3 X20.179 I-3.016
G3 X26.211 I3.016
G1 X26.215 Y-213.573 F600
G1 X26.37 Y-212.674
G1 X26.424 Y-212.534
G1 X26.462 Y-212.389
G1 X26.484 Y-212.241
G1 X26.494 Y-212.091
G1 X26.49 Y-211.933
G1 X26.473 Y-211.763
G1 X26.441 Y-211.585
G1 X26.391 Y-211.398
G1 X26.322 Y-211.205
G1 X26.233 Y-211.007
G1 X26.123 Y-210.808
G1 X25.992 Y-210.608
G1 X25.838 Y-210.411
G1 X25.662 Y-210.22
G1 X25.463 Y-210.036
G1 X25.243 Y-209.862
G1 X25.002 Y-209.702
G1 X24.741 Y-209.558
G1 X24.461 Y-209.431
G1 X24.165 Y-209.324
G1 X23.855 Y-209.24
G1 X23.532 Y-209.18
G1 X23.199 Y-209.145
G1 X22.859 Y-209.137
G1 X22.514 Y-209.157
G1 X22.167 Y-209.204
G1 X21.821 Y-209.281
G1 X21.478 Y-209.386
G1 X21.142 Y-209.519
G1 X20.815 Y-209.681
G1 X20.499 Y-209.869
G1 X20.41 Y-209.933
G1 X20.184 Y-210.131
G1 X20.003 Y-210.37
G1 X19.874 Y-210.641
G1 X19.781 Y-210.901
G1 X19.468 Y-211.797
G1 X19.348 Y-212.143
G1 X19.213 Y-212.558
G1 X19.097 Y-212.972
G1 X19.054 Y-213.22
G1 X19.032 Y-213.386
G1 X19.009 Y-213.801
G1 X19.032 Y-214.215
G1 X19.054 Y-214.382
G1 X19.097 Y-214.629
G1 X19.214 Y-215.044
G1 X19.379 Y-215.458
G1 X19.468 Y-215.653
G1 X19.596 Y-215.872
G1 X19.882 Y-216.277
G1 X19.889 Y-216.286
G1 X20.276 Y-216.701
G1 X20.296 Y-216.719
G1 X20.71 Y-217.056
G1 X20.799 Y-217.115
G1 X21.124 Y-217.302
G1 X21.538 Y-217.498
G1 X21.628 Y-217.529
G1 X21.953 Y-217.63
G1 X22.367 Y-217.719
G1 X22.781 Y-217.764
G1 X23.195 Y-217.763
G1 X23.609 Y-217.716
G1 X24.023 Y-217.624
G1 X24.328 Y-217.529
G1 X24.438 Y-217.49
G1 X24.852 Y-217.29
G1 X25.157 Y-217.115
G1 X25.266 Y-217.042
G1 X25.68 Y-216.7
G1 X26.067 Y-216.286
G1 X26.094 Y-216.251
G1 X26.357 Y-215.872
G1 X26.508 Y-215.61
G1 X26.576 Y-215.458
G1 X26.745 Y-215.044
G1 X26.886 Y-214.629
G1 X27.175 Y-213.801
G1 X27.337 Y-213.346
G1 X27.625 Y-212.558
G1 X27.692 Y-212.344
G1 X27.744 Y-212.115
G1 X27.779 Y-211.874
G1 X27.794 Y-211.623
G1 X27.79 Y-211.358
G1 X27.763 Y-211.081
G1 X27.711 Y-210.796
G1 X27.635 Y-210.508
G1 X27.533 Y-210.216
G1 X27.401 Y-209.92
G1 X27.238 Y-209.623
G1 X27.047 Y-209.33
G1 X26.827 Y-209.046
G1 X26.578 Y-208.774
G1 X26.298 Y-208.514
G1 X25.988 Y-208.268
G1 X25.648 Y-208.041
G1 X25.281 Y-207.836
G1 X24.891 Y-207.657
G1 X24.479 Y-207.508
G1 X24.049 Y-207.39
G1 X23.603 Y-207.305
G1 X23.142 Y-207.256
G1 X22.669 Y-207.243
G1 X22.188 Y-207.269
G1 X21.959 Y-207.299
G1 X21.652 Y-207.375
G1 X21.368 Y-207.513
G1 X21.12 Y-207.709
G1 X20.919 Y-207.953
G1 X20.774 Y-208.234
G1 X20.296 Y-209.482
G1 X20.082 Y-210.072
G1 X19.874 Y-210.641
G3 X20.339 Y-211.453 I0.605 J-0.193 F1000
G1 X26.897 Y-212.936
G3 X27.625 Y-212.558 I0.14 J0.619
G1 X27.778 Y-212.143 F600
G1 X27.935 Y-211.729
G1 X28.165 Y-211.129
G1 X28.342 Y-210.673
G1 X28.39 Y-210.528
G1 X28.433 Y-210.353
G1 X28.463 Y-210.161
G1 X28.48 Y-209.952
G1 Y-209.719
G1 X28.46 Y-209.479
G1 X28.417 Y-209.212
G1 X28.349 Y-208.936
G1 X28.253 Y-208.65
G1 X28.123 Y-208.344
G1 X27.963 Y-208.038
G1 X27.768 Y-207.73
G1 X27.531 Y-207.414
G1 X27.255 Y-207.102
G1 X26.946 Y-206.805
G1 X26.597 Y-206.518
G1 X26.204 Y-206.246
G1 X25.769 Y-205.994
G1 X25.301 Y-205.771
G1 X24.805 Y-205.582
G1 X24.29 Y-205.431
G1 X23.806 Y-205.331
G1 X23.369 Y-205.277
G1 X22.956 Y-205.259
G1 X22.9 Y-205.261
G1 X22.619 Y-205.298
G1 X22.35 Y-205.389
G1 X22.103 Y-205.53
G1 X21.887 Y-205.715
G1 X21.711 Y-205.937
G1 X21.58 Y-206.19
G1 X21.187 Y-207.172
G1 X20.792 Y-208.187
G1 X20.774 Y-208.234
G3 X21.186 Y-209.049 I0.6 J-0.208 F1000
G1 X27.57 Y-211.029
G3 X28.342 Y-210.673 I0.188 J0.606
G1 X28.579 Y-210.065 F600
G1 X28.907 Y-209.243
G1 X28.993 Y-209.03
G1 X29.05 Y-208.867
G1 X29.092 Y-208.701
G1 X29.125 Y-208.507
G1 X29.144 Y-208.303
G1 X29.146 Y-208.067
G1 X29.129 Y-207.825
G1 X29.088 Y-207.551
G1 X29.022 Y-207.271
G1 X28.925 Y-206.97
G1 X28.792 Y-206.65
G1 X28.63 Y-206.331
G1 X28.421 Y-205.992
G1 X28.169 Y-205.648
G1 X27.881 Y-205.315
G1 X27.538 Y-204.978
G1 X27.143 Y-204.647
G1 X26.709 Y-204.34
G1 X26.241 Y-204.062
G1 X25.744 Y-203.818
G1 X25.262 Y-203.628
G1 X24.806 Y-203.489
G1 X24.407 Y-203.402
G1 X24.009 Y-203.348
G1 X23.814 Y-203.338
G1 X23.51 Y-203.353
G1 X23.214 Y-203.43
G1 X22.941 Y-203.565
G1 X22.702 Y-203.754
G1 X22.506 Y-203.988
G1 X22.362 Y-204.257
G1 X22.017 Y-205.101
G1 X21.58 Y-206.19
G3 X21.952 Y-206.999 I0.597 J-0.216 F1000
G1 X28.188 Y-209.366
G3 X28.993 Y-209.03 I0.225 J0.594
G1 X29.24 Y-208.415 F600
G1 X29.407 Y-208
G1 X29.67 Y-207.358
G1 X29.729 Y-207.191
G1 X29.774 Y-207.018
G1 X29.809 Y-206.823
G1 X29.83 Y-206.608
G1 X29.834 Y-206.368
G1 X29.818 Y-206.115
G1 X29.776 Y-205.829
G1 X29.71 Y-205.538
G1 X29.607 Y-205.212
G1 X29.474 Y-204.884
G1 X29.299 Y-204.536
G1 X29.076 Y-204.17
G1 X28.818 Y-203.813
G1 X28.506 Y-203.447
G1 X28.141 Y-203.084
G1 X27.736 Y-202.741
G1 X27.298 Y-202.426
G1 X26.832 Y-202.145
G1 X26.366 Y-201.913
G1 X25.912 Y-201.731
G1 X25.512 Y-201.606
G1 X25.109 Y-201.515
G1 X24.754 Y-201.465
G1 X24.64 Y-201.458
G1 X24.344 Y-201.47
G1 X24.057 Y-201.54
G1 X23.789 Y-201.666
G1 X23.551 Y-201.843
G1 X23.354 Y-202.063
G1 X23.204 Y-202.318
G1 X23.069 Y-202.615
G1 X22.883 Y-203.029
G1 X22.705 Y-203.443
G1 X22.529 Y-203.858
G1 X22.362 Y-204.257
G3 X22.709 Y-205.06 I0.596 J-0.219 F1000
G1 X28.841 Y-207.682
G3 X29.67 Y-207.358 I0.25 J0.584
G1 X29.746 Y-207.172 F600
G1 X29.822 Y-206.992
G1 X30.098 Y-206.343
G1 X30.236 Y-206.029
G1 X30.386 Y-205.701
G1 X30.442 Y-205.562
G1 X30.495 Y-205.383
G1 X30.536 Y-205.192
G1 X30.564 Y-204.968
G1 X30.575 Y-204.733
G1 X30.566 Y-204.462
G1 X30.535 Y-204.185
G1 X30.472 Y-203.869
G1 X30.382 Y-203.548
G1 X30.253 Y-203.2
G1 X30.082 Y-202.833
G1 X29.876 Y-202.468
G1 X29.617 Y-202.086
G1 X29.307 Y-201.7
G1 X28.959 Y-201.331
G1 X28.569 Y-200.98
G1 X28.145 Y-200.654
G1 X27.689 Y-200.36
G1 X27.228 Y-200.112
G1 X26.794 Y-199.923
G1 X26.401 Y-199.787
G1 X26.007 Y-199.686
G1 X25.656 Y-199.625
G1 X25.596 Y-199.619
G1 X25.305 Y-199.621
G1 X25.021 Y-199.68
G1 X24.753 Y-199.793
G1 X24.512 Y-199.957
G1 X24.308 Y-200.164
G1 X24.149 Y-200.407
G1 X24.023 Y-200.647
G1 X23.864 Y-200.958
G1 X23.658 Y-201.372
G1 X23.456 Y-201.786
G1 X23.258 Y-202.201
G1 X23.204 Y-202.318
G3 X23.518 Y-203.137 I0.586 J-0.245 F1000
G1 X29.548 Y-205.989
G3 X30.386 Y-205.701 I0.271 J0.574
G1 X30.472 Y-205.515 F600
G1 X30.671 Y-205.101
G1 X30.875 Y-204.686
G1 X31.085 Y-204.272
G1 X31.151 Y-204.147
G1 X31.214 Y-204.01
G1 X31.273 Y-203.845
G1 X31.326 Y-203.65
G1 X31.365 Y-203.439
G1 X31.39 Y-203.197
G1 X31.396 Y-202.939
G1 X31.379 Y-202.652
G1 X31.336 Y-202.342
G1 X31.264 Y-202.017
G1 X31.154 Y-201.658
G1 X31.011 Y-201.301
G1 X30.823 Y-200.919
G1 X30.585 Y-200.522
G1 X30.309 Y-200.135
G1 X29.983 Y-199.749
G1 X29.612 Y-199.374
G1 X29.204 Y-199.024
G1 X28.766 Y-198.704
G1 X28.308 Y-198.424
G1 X27.89 Y-198.213
G1 X27.491 Y-198.049
G1 X27.11 Y-197.928
G1 X26.756 Y-197.846
G1 X26.663 Y-197.832
G1 X26.366 Y-197.818
G1 X26.072 Y-197.864
G1 X25.793 Y-197.968
G1 X25.54 Y-198.125
G1 X25.324 Y-198.33
G1 X25.153 Y-198.573
G1 X24.852 Y-199.11
G1 X24.517 Y-199.715
G1 X24.438 Y-199.861
G1 X24.294 Y-200.129
G1 X24.149 Y-200.407
G3 X24.421 Y-201.242 I0.572 J-0.275 F1000
G1 X30.299 Y-204.392
G3 X31.151 Y-204.147 I0.3 J0.56
G1 X31.302 Y-203.858 F600
G1 X31.478 Y-203.529
G1 X31.525 Y-203.443
G1 X31.754 Y-203.029
G1 X31.988 Y-202.615
G1 X32.067 Y-202.454
G1 X32.136 Y-202.282
G1 X32.194 Y-202.094
G1 X32.243 Y-201.875
G1 X32.276 Y-201.639
G1 X32.292 Y-201.369
G1 X32.286 Y-201.088
G1 X32.253 Y-200.767
G1 X32.193 Y-200.441
G1 X32.096 Y-200.081
G1 X31.962 Y-199.704
G1 X31.789 Y-199.322
G1 X31.566 Y-198.916
G1 X31.294 Y-198.504
G1 X30.982 Y-198.106
G1 X30.627 Y-197.721
G1 X30.232 Y-197.356
G1 X29.806 Y-197.022
G1 X29.367 Y-196.731
G1 X28.955 Y-196.503
G1 X28.574 Y-196.331
G1 X28.194 Y-196.195
G1 X27.85 Y-196.102
G1 X27.71 Y-196.076
G1 X27.406 Y-196.051
G1 X27.103 Y-196.09
G1 X26.814 Y-196.189
G1 X26.552 Y-196.346
G1 X26.328 Y-196.553
G1 X26.151 Y-196.802
G1 X25.909 Y-197.229
G1 X25.442 Y-198.058
G1 X25.153 Y-198.573
G3 X25.392 Y-199.409 I0.564 J-0.291 F1000
G1 X31.12 Y-202.829
G3 X31.988 Y-202.615 I0.326 J0.545
G1 X32.307 Y-202.045 F600
G1 X32.919 Y-200.958
G1 X32.994 Y-200.809
G1 X33.066 Y-200.63
G1 X33.126 Y-200.439
G1 X33.178 Y-200.211
G1 X33.213 Y-199.971
G1 X33.23 Y-199.693
G1 X33.226 Y-199.401
G1 X33.194 Y-199.077
G1 X33.132 Y-198.729
G1 X33.037 Y-198.37
G1 X32.898 Y-197.976
G1 X32.722 Y-197.579
G1 X32.501 Y-197.173
G1 X32.227 Y-196.755
G1 X31.908 Y-196.343
G1 X31.55 Y-195.951
G1 X31.158 Y-195.586
G1 X30.739 Y-195.254
G1 X30.329 Y-194.979
G1 X29.916 Y-194.749
G1 X29.552 Y-194.582
G1 X29.174 Y-194.444
G1 X28.837 Y-194.352
G1 X28.715 Y-194.329
G1 X28.412 Y-194.303
G1 X28.109 Y-194.339
G1 X27.82 Y-194.437
G1 X27.558 Y-194.592
G1 X27.333 Y-194.797
G1 X27.154 Y-195.044
G1 X26.508 Y-196.172
G1 X26.151 Y-196.802
G3 X26.378 Y-197.635 I0.563 J-0.294 F1000
G1 X32.042 Y-201.165
G3 X32.919 Y-200.958 I0.336 J0.539
G1 X33.389 Y-200.129 F600
G1 X33.627 Y-199.715
G1 X33.863 Y-199.3
G1 X33.948 Y-199.134
G1 X34.022 Y-198.952
G1 X34.084 Y-198.758
G1 X34.138 Y-198.526
G1 X34.175 Y-198.283
G1 X34.194 Y-197.998
G1 X34.19 Y-197.704
G1 X34.159 Y-197.371
G1 X34.098 Y-197.021
G1 X34.002 Y-196.651
G1 X33.862 Y-196.25
G1 X33.686 Y-195.85
G1 X33.463 Y-195.436
G1 X33.191 Y-195.016
G1 X32.872 Y-194.602
G1 X32.517 Y-194.21
G1 X32.128 Y-193.844
G1 X31.713 Y-193.512
G1 X31.311 Y-193.24
G1 X30.903 Y-193.011
G1 X30.544 Y-192.844
G1 X30.17 Y-192.707
G1 X29.836 Y-192.613
G1 X29.731 Y-192.593
G1 X29.43 Y-192.566
G1 X29.129 Y-192.6
G1 X28.842 Y-192.695
G1 X28.58 Y-192.847
G1 X28.354 Y-193.048
G1 X28.174 Y-193.291
G1 X27.567 Y-194.329
G1 X27.154 Y-195.044
G3 X27.371 Y-195.875 I0.561 J-0.298 F1000
G1 X32.979 Y-199.5
G3 X33.863 Y-199.3 I0.345 J0.533
G1 X33.963 Y-199.126 F600
G1 X34.377 Y-198.408
G1 X34.791 Y-197.699
G1 X34.92 Y-197.45
G1 X34.996 Y-197.268
G1 X35.06 Y-197.072
G1 X35.115 Y-196.839
G1 X35.153 Y-196.594
G1 X35.175 Y-196.307
G1 X35.173 Y-196.012
G1 X35.143 Y-195.674
G1 X35.085 Y-195.325
G1 X34.99 Y-194.95
G1 X34.853 Y-194.547
G1 X34.679 Y-194.145
G1 X34.457 Y-193.727
G1 X34.187 Y-193.304
G1 X33.871 Y-192.888
G1 X33.519 Y-192.494
G1 X33.133 Y-192.127
G1 X32.72 Y-191.793
G1 X32.323 Y-191.521
G1 X31.92 Y-191.29
G1 X31.563 Y-191.122
G1 X31.193 Y-190.983
G1 X30.86 Y-190.887
G1 X30.511 Y-190.817
G1 X30.197 Y-190.78
G1 X29.867 Y-190.767
G1 X29.572 Y-190.78
G1 X29.291 Y-190.814
G1 X29.046 Y-190.877
G1 X28.825 Y-190.999
G1 X28.642 Y-191.172
G1 X28.507 Y-191.386
G1 X28.431 Y-191.626
G1 X28.418 Y-191.878
G1 X28.468 Y-192.126
G1 X28.579 Y-192.352
G1 X28.626 Y-192.427 F1000
G1 X28.682 Y-192.495
G1 X29.105 Y-192.933
G1 X33.798 Y-197.8
G3 X34.791 Y-197.699 I0.457 J0.441
G1 X35.067 Y-197.229 F600
G1 X35.56 Y-196.4
G1 X35.62 Y-196.336
G1 X35.722 Y-196.226
G1 X35.808 Y-196.104
G1 X35.897 Y-195.954
G1 X35.976 Y-195.791
G1 X36.052 Y-195.594
G1 X36.115 Y-195.384
G1 X36.169 Y-195.134
G1 X36.203 Y-194.874
G1 X36.218 Y-194.571
G1 X36.208 Y-194.257
G1 X36.17 Y-193.907
G1 X36.097 Y-193.533
G1 X35.991 Y-193.15
G1 X35.838 Y-192.735
G1 X35.642 Y-192.31
G1 X35.405 Y-191.889
G1 X35.121 Y-191.466
G1 X34.79 Y-191.051
G1 X34.424 Y-190.661
G1 X34.025 Y-190.299
G1 X33.603 Y-189.973
G1 X33.158 Y-189.684
G1 X32.7 Y-189.436
G1 X32.229 Y-189.228
G1 X31.753 Y-189.062
G1 X31.3 Y-188.944
G1 X30.869 Y-188.868
G1 X30.507 Y-188.834
G1 X30.144 Y-188.829
G1 X29.83 Y-188.85
G1 X29.521 Y-188.896
G1 X29.236 Y-188.961
G1 X28.98 Y-189.043
G1 X28.72 Y-189.149
G1 X28.494 Y-189.263
G1 X28.414 Y-189.312
G1 X28.147 Y-189.52
G1 X27.935 Y-189.783
G1 X27.788 Y-190.087
G1 X27.713 Y-190.417
G1 X27.716 Y-190.755
G1 X27.794 Y-191.084
G1 X27.945 Y-191.386
G1 X27.996 Y-191.449 F1000
G1 X28.053 Y-191.504
G1 X28.117 Y-191.552
G1 X28.573 Y-191.85
G1 X34.924 Y-196.001
G1 X35.278 Y-196.233
G3 X35.62 Y-196.336 I0.347 J0.532
G1 X35.958 Y-196.327 F600
G1 X36.107 Y-196.316
G1 X36.249 Y-196.266
G1 X36.384 Y-196.201
G1 X36.512 Y-196.123
G1 X36.634 Y-196.032
G1 X36.759 Y-195.922
G1 X36.882 Y-195.795
G1 X37.01 Y-195.64
G1 X37.129 Y-195.47
G1 X37.249 Y-195.265
G1 X37.356 Y-195.043
G1 X37.453 Y-194.791
G1 X37.538 Y-194.507
G1 X37.601 Y-194.205
G1 X37.645 Y-193.862
G1 X37.662 Y-193.501
G1 X37.65 Y-193.114
G1 X37.601 Y-192.69
G1 X37.516 Y-192.255
G1 X37.389 Y-191.803
G1 X37.213 Y-191.327
G1 X36.986 Y-190.838
G1 X36.712 Y-190.354
G1 X36.392 Y-189.881
G1 X36.019 Y-189.416
G1 X35.598 Y-188.97
G1 X35.131 Y-188.548
G1 X34.626 Y-188.161
G1 X34.09 Y-187.815
G1 X33.535 Y-187.516
G1 X32.976 Y-187.271
G1 X32.416 Y-187.078
G1 X31.871 Y-186.937
G1 X31.339 Y-186.845
G1 X30.824 Y-186.798
G1 X30.321 Y-186.792
G1 X29.839 Y-186.825
G1 X29.417 Y-186.889
G1 X29.006 Y-186.985
G1 X28.661 Y-187.095
G1 X28.314 Y-187.238
G1 X28.024 Y-187.385
G1 X27.734 Y-187.564
G1 X27.483 Y-187.748
G1 X27.254 Y-187.945
G1 X27.156 Y-188.045
G1 X26.949 Y-188.308
G1 X26.807 Y-188.61
G1 X26.736 Y-188.937
G1 X26.74 Y-189.271
G1 X26.819 Y-189.596
G1 X26.969 Y-189.895
G1 X27.337 Y-190.459
G1 X27.751 Y-191.088
G1 X27.945 Y-191.386
G3 X28.129 Y-191.56 I0.519 J0.365 F1000
G1 X28.58 Y-191.84
G1 X35.256 Y-196
G1 X35.627 Y-196.231
G3 X35.958 Y-196.327 I0.336 J0.539
G1 X36.034 Y-196.325 F600
G1 X36.448
G1 X36.862 Y-196.327
G1 X37.012 Y-196.321
G1 X37.16 Y-196.298
G1 X37.306 Y-196.262
G1 X37.447 Y-196.212
G1 X37.599 Y-196.145
G1 X37.752 Y-196.061
G1 X37.912 Y-195.956
G1 X38.079 Y-195.827
G1 X38.241 Y-195.678
G1 X38.409 Y-195.498
G1 X38.569 Y-195.296
G1 X38.724 Y-195.064
G1 X38.873 Y-194.795
G1 X39.005 Y-194.508
G1 X39.124 Y-194.179
G1 X39.223 Y-193.816
G1 X39.296 Y-193.435
G1 X39.341 Y-193.009
G1 X39.353 Y-192.548
G1 X39.328 Y-192.075
G1 X39.259 Y-191.567
G1 X39.142 Y-191.027
G1 X38.973 Y-190.47
G1 X38.754 Y-189.915
G1 X38.477 Y-189.349
G1 X38.338 Y-189.116
G1 X38.157 Y-188.871
G1 X37.929 Y-188.669
G1 X37.664 Y-188.517
G1 X37.374 Y-188.423
G1 X37.071 Y-188.391
G1 X36.448 Y-188.388
G1 X36.034
G1 X35.62 Y-188.384
G1 X35.291 Y-188.115
G1 X34.748 Y-187.286
G1 X34.477 Y-186.872
G1 X34.325 Y-186.664
G1 X34.132 Y-186.439
G1 X33.904 Y-186.214
G1 X33.639 Y-185.991
G1 X33.325 Y-185.767
G1 X32.985 Y-185.564
G1 X32.599 Y-185.374
G1 X32.168 Y-185.203
G1 X31.712 Y-185.063
G1 X31.235 Y-184.957
G1 X30.739 Y-184.889
G1 X30.236 Y-184.861
G1 X29.728 Y-184.873
G1 X29.226 Y-184.925
G1 X28.732 Y-185.017
G1 X28.254 Y-185.147
G1 X27.813 Y-185.305
G1 X27.411 Y-185.488
G1 X27.059 Y-185.683
G1 X26.746 Y-185.89
G1 X26.462 Y-186.114
G1 X26.221 Y-186.337
G1 X26.077 Y-186.493
G1 X25.884 Y-186.757
G1 X25.753 Y-187.057
G1 X25.691 Y-187.378
G1 X25.701 Y-187.705
G1 X25.783 Y-188.022
G1 X25.932 Y-188.313
G1 X26.094 Y-188.559
G1 X26.508 Y-189.195
G1 X26.969 Y-189.895
G3 X27.704 Y-190.127 I0.52 J0.365 F1000
G1 X34.15 Y-187.798
G3 X34.477 Y-186.872 I-0.216 J0.597
G1 X33.934 Y-186.043 F600
G1 X33.12 Y-184.8
G1 X32.935 Y-184.547
G1 X32.78 Y-184.366
G1 X32.605 Y-184.193
G1 X32.387 Y-184.01
G1 X32.147 Y-183.838
G1 X31.862 Y-183.667
G1 X31.541 Y-183.509
G1 X31.193 Y-183.37
G1 X30.795 Y-183.248
G1 X30.367 Y-183.153
G1 X29.918 Y-183.091
G1 X29.438 Y-183.063
G1 X28.936 Y-183.074
G1 X28.427 Y-183.127
G1 X27.92 Y-183.221
G1 X27.421 Y-183.356
G1 X26.94 Y-183.529
G1 X26.503 Y-183.726
G1 X26.094 Y-183.952
G1 X25.767 Y-184.169
G1 X25.454 Y-184.415
G1 X25.2 Y-184.649
G1 X24.96 Y-184.91
G1 X24.928 Y-184.951
G1 X24.765 Y-185.21
G1 X24.659 Y-185.496
G1 X24.614 Y-185.798
G1 X24.632 Y-186.103
G1 X24.712 Y-186.397
G1 X24.85 Y-186.669
G1 X25.266 Y-187.297
G1 X25.68 Y-187.933
G1 X25.932 Y-188.313
G3 X26.714 Y-188.522 I0.517 J0.368 F1000
G1 X32.842 Y-185.706
G3 X33.12 Y-184.8 I-0.265 J0.577
G1 X31.892 Y-182.929 F600
G1 X31.722 Y-182.697
G1 X31.589 Y-182.542
G1 X31.42 Y-182.375
G1 X31.231 Y-182.216
G1 X30.999 Y-182.051
G1 X30.744 Y-181.899
G1 X30.447 Y-181.753
G1 X30.112 Y-181.62
G1 X29.752 Y-181.51
G1 X29.343 Y-181.42
G1 X28.905 Y-181.36
G1 X28.448 Y-181.334
G1 X27.959 Y-181.346
G1 X27.45 Y-181.4
G1 X26.94 Y-181.495
G1 X26.433 Y-181.633
G1 X25.942 Y-181.81
G1 X25.467 Y-182.026
G1 X25.069 Y-182.247
G1 X24.702 Y-182.491
G1 X24.401 Y-182.728
G1 X24.123 Y-182.985
G1 X23.893 Y-183.236
G1 X23.844 Y-183.3
G1 X23.681 Y-183.559
G1 X23.576 Y-183.846
G1 X23.531 Y-184.149
